src/assets/textures/look32.CUBE
#Created by: Adobe Photoshop Export Color Lookup Plugin
TITLE "Unbenannt-1"
#LUT size
LUT_3D_SIZE 32
#data domain
DOMAIN_MIN 0.0 0.0 0.0
DOMAIN_MAX 1.0 1.0 1.0
#LUT data points
0.000000 0.000000 0.000000
0.034149 0.001007 0.000000
0.066437 0.001770 0.000000
0.098511 0.001434 0.000000
0.131226 0.000000 0.000000
0.164429 0.000000 0.000000
0.198181 0.000000 0.000000
0.232391 0.000000 0.000000
0.267212 0.000000 0.000000
0.302460 0.000000 0.000000
0.338257 0.000000 0.000000
0.374603 0.000000 0.000000
0.411438 0.000000 0.000000
0.448822 0.000000 0.000000
0.486633 0.000000 0.000000
0.524994 0.000000 0.000000
0.563751 0.000000 0.000000
0.602112 0.000000 0.000000
0.639954 0.000000 0.000000
0.677307 0.000000 0.000000
0.714081 0.000000 0.000000
0.750397 0.000000 0.000000
0.786163 0.000000 0.000000
0.821411 0.000000 0.000000
0.856171 0.000000 0.000000
0.890411 0.000000 0.000000
0.924103 0.000000 0.000000
0.957336 0.000000 0.000000
0.989990 0.000000 0.000000
1.000000 0.000000 0.000000
1.000000 0.000000 0.000000
1.000000 0.000000 0.000000
0.000000 0.026031 0.015381
0.028809 0.028809 0.011932
0.064362 0.028503 0.006592
0.099365 0.026886 0.000153
0.134552 0.023499 0.000000
0.169922 0.018677 0.000000
0.205750 0.011810 0.000000
0.242126 0.002899 0.000000
0.278961 0.000000 0.000000
0.316315 0.000000 0.000000
0.354248 0.000000 0.000000
0.392731 0.000000 0.000000
0.431519 0.000000 0.000000
0.469147 0.000000 0.000000
0.507294 0.000000 0.000000
0.545929 0.000000 0.000000
0.584595 0.000000 0.000000
0.622650 0.000000 0.000000
0.660217 0.000000 0.000000
0.697266 0.000000 0.000000
0.733826 0.000000 0.000000
0.769806 0.000000 0.000000
0.805328 0.000000 0.000000
0.840332 0.000000 0.000000
0.874786 0.000000 0.000000
0.908752 0.000000 0.000000
0.942169 0.000000 0.000000
0.975098 0.000000 0.000000
1.000000 0.000000 0.000000
1.000000 0.000000 0.000000
1.000000 0.000000 0.000000
1.000000 0.000000 0.000000
0.000000 0.051849 0.030762
0.019501 0.056519 0.030914
0.058167 0.058167 0.023224
0.094452 0.057495 0.016724
0.130402 0.055664 0.008270
0.166229 0.052521 0.000000
0.202393 0.047638 0.000000
0.238953 0.040375 0.000000
0.275970 0.030304 0.000000
0.313477 0.018005 0.000000
0.351471 0.003021 0.000000
0.389984 0.000000 0.000000
0.429077 0.000000 0.000000
0.468658 0.000000 0.000000
0.508850 0.000000 0.000000
0.549500 0.000000 0.000000
0.590088 0.000000 0.000000
0.630005 0.000000 0.000000
0.669403 0.000000 0.000000
0.708191 0.000000 0.000000
0.746429 0.000000 0.000000
0.784088 0.000000 0.000000
0.821136 0.000000 0.000000
0.857666 0.000000 0.000000
0.893250 0.000000 0.000000
0.926941 0.000000 0.000000
0.960114 0.000000 0.000000
0.992737 0.000000 0.000000
1.000000 0.000000 0.000000
1.000000 0.000000 0.000000
1.000000 0.000000 0.000000
1.000000 0.000000 0.000000
0.000000 0.077393 0.045074
0.007843 0.084076 0.049591
0.047394 0.086304 0.041290
0.087952 0.087952 0.031067
0.125000 0.087402 0.022644
0.161682 0.085938 0.012115
0.198303 0.083282 0.000000
0.235229 0.079437 0.000000
0.272461 0.074036 0.000000
0.310211 0.066589 0.000000
0.348328 0.056519 0.000000
0.386932 0.042267 0.000000
0.426086 0.022705 0.000000
0.465759 0.000031 0.000000
0.505951 0.000000 0.000000
0.546722 0.000000 0.000000
0.587341 0.000000 0.000000
0.627380 0.000000 0.000000
0.666809 0.000000 0.000000
0.705688 0.000000 0.000000
0.743927 0.000000 0.000000
0.781677 0.000000 0.000000
0.818787 0.000000 0.000000
0.855347 0.000000 0.000000
0.891327 0.000000 0.000000
0.926758 0.000000 0.000000
0.961609 0.000000 0.000000
0.995911 0.000000 0.000000
1.000000 0.000000 0.000000
1.000000 0.000000 0.000000
1.000000 0.000000 0.000000
1.000000 0.000000 0.000000
0.000000 0.103302 0.059387
0.000000 0.111755 0.068146
0.032349 0.114380 0.060486
0.077209 0.116699 0.050995
0.118225 0.118225 0.038910
0.155975 0.117737 0.027832
0.193390 0.116486 0.014923
0.230774 0.114197 0.000000
0.268433 0.110962 0.000000
0.306396 0.106506 0.000000
0.344727 0.100708 0.000000
0.383484 0.093079 0.000000
0.422729 0.083099 0.000000
0.462524 0.069916 0.000000
0.502808 0.051392 0.000000
0.543610 0.024109 0.000000
0.584381 0.000000 0.000000
0.624512 0.000000 0.000000
0.664062 0.000000 0.000000
0.702972 0.000000 0.000000
0.741272 0.000000 0.000000
0.779083 0.000000 0.000000
0.816284 0.000000 0.000000
0.852875 0.000000 0.000000
0.888916 0.000000 0.000000
0.924377 0.000000 0.000000
0.959290 0.000000 0.000000
0.993591 0.000000 0.000000
1.000000 0.000000 0.000000
1.000000 0.000000 0.000000
1.000000 0.000000 0.000000
1.000000 0.000000 0.000000
0.000000 0.129578 0.073792
0.000000 0.139618 0.087006
0.014069 0.142700 0.079498
0.062958 0.145355 0.070770
0.107544 0.147430 0.060120
0.149017 0.149017 0.046448
0.187469 0.148468 0.033081
0.225525 0.147339 0.017334
0.263672 0.145355 0.000000
0.301941 0.142578 0.000000
0.340607 0.138794 0.000000
0.379639 0.133911 0.000000
0.419098 0.127716 0.000000
0.458984 0.119751 0.000000
0.499390 0.109711 0.000000
0.540314 0.096893 0.000000
0.581146 0.080383 0.000000
0.621368 0.058075 0.000000
0.661011 0.025452 0.000000
0.700043 0.000000 0.000000
0.738495 0.000000 0.000000
0.776306 0.000000 0.000000
0.813568 0.000000 0.000000
0.850281 0.000000 0.000000
0.886353 0.000000 0.000000
0.921875 0.000000 0.000000
0.956787 0.000000 0.000000
0.991180 0.000000 0.000000
1.000000 0.000000 0.000000
1.000000 0.000000 0.000000
1.000000 0.000000 0.000000
1.000000 0.000000 0.000000
0.000000 0.156128 0.088196
0.000000 0.167847 0.105652
0.000000 0.171143 0.098480
0.043182 0.174164 0.090210
0.093842 0.176697 0.080200
0.138214 0.178772 0.068451
0.180267 0.180267 0.053162
0.219360 0.179749 0.037781
0.258118 0.178650 0.019135
0.296936 0.176849 0.000000
0.335938 0.174438 0.000000
0.375275 0.171082 0.000000
0.414948 0.166840 0.000000
0.455048 0.161469 0.000000
0.495575 0.154846 0.000000
0.536621 0.146515 0.000000
0.577667 0.136566 0.000000
0.618011 0.124634 0.000000
0.657745 0.110321 0.000000
0.696869 0.092529 0.000000
0.735443 0.069275 0.000000
0.773346 0.034790 0.000000
0.810669 0.000000 0.000000
0.847412 0.000000 0.000000
0.883636 0.000000 0.000000
0.919189 0.000000 0.000000
0.954193 0.000000 0.000000
0.988617 0.000000 0.000000
1.000000 0.000000 0.000000
1.000000 0.000000 0.000000
1.000000 0.000000 0.000000
1.000000 0.000000 0.000000
0.000000 0.183014 0.102448
0.000000 0.195282 0.121277
0.000000 0.199829 0.117493
0.015961 0.203125 0.109619
0.076050 0.206116 0.100220
0.124939 0.208496 0.089203
0.169464 0.210510 0.075867
0.212006 0.212006 0.058990
0.251770 0.211456 0.041809
0.291138 0.210419 0.020477
0.330658 0.208801 0.000000
0.370331 0.206635 0.000000
0.410339 0.203613 0.000000
0.450714 0.199738 0.000000
0.491425 0.195007 0.000000
0.532593 0.189178 0.000000
0.573822 0.182159 0.000000
0.614349 0.174133 0.000000
0.654236 0.164825 0.000000
0.693451 0.154053 0.000000
0.732117 0.141602 0.000000
0.770172 0.126770 0.000000
0.807587 0.109100 0.000000
0.844452 0.086700 0.000000
0.880676 0.056152 0.000000
0.916351 0.010254 0.000000
0.951416 0.000000 0.000000
0.985901 0.000000 0.000000
1.000000 0.000000 0.000000
1.000000 0.000000 0.000000
1.000000 0.000000 0.000000
1.000000 0.000000 0.000000
0.000000 0.210297 0.116882
0.000000 0.222778 0.136078
0.000000 0.228912 0.136536
0.000000 0.232391 0.128876
0.051331 0.235626 0.119995
0.108185 0.238434 0.109375
0.156403 0.240753 0.097412
0.201050 0.242737 0.082855
0.244263 0.244263 0.064117
0.284546 0.243622 0.045166
0.324615 0.242615 0.021118
0.364777 0.241150 0.000000
0.405151 0.239105 0.000000
0.445770 0.236359 0.000000
0.486847 0.232849 0.000000
0.528229 0.228607 0.000000
0.569611 0.223450 0.000000
0.610352 0.217560 0.000000
0.650421 0.210846 0.000000
0.689819 0.203278 0.000000
0.728577 0.194702 0.000000
0.766724 0.185028 0.000000
0.804291 0.174042 0.000000
0.841217 0.161621 0.000000
0.877533 0.147369 0.000000
0.913269 0.130707 0.000000
0.948456 0.110657 0.000000
0.983002 0.085388 0.000000
1.000000 0.049835 0.000000
1.000000 0.000000 0.000000
1.000000 0.058167 0.000000
1.000000 0.104126 0.000000
0.000000 0.237854 0.131500
0.000000 0.250519 0.150879
0.000000 0.258240 0.155701
0.000000 0.261932 0.148254
0.014740 0.265320 0.139709
0.086945 0.268494 0.129822
0.140411 0.271210 0.118256
0.188171 0.273499 0.105255
0.233154 0.275421 0.089417
0.276917 0.276917 0.069031
0.317841 0.276306 0.047852
0.358551 0.275330 0.020508
0.399384 0.273956 0.000000
0.440399 0.272034 0.000000
0.481720 0.269470 0.000000
0.523407 0.266266 0.000000
0.565063 0.262360 0.000000
0.606049 0.257935 0.000000
0.646240 0.252899 0.000000
0.685852 0.247253 0.000000
0.724792 0.240875 0.000000
0.763031 0.233856 0.000000
0.800690 0.226044 0.000000
0.837738 0.217377 0.000000
0.874176 0.207855 0.000000
0.910004 0.197205 0.000000
0.945251 0.185455 0.000000
0.979919 0.172180 0.000000
1.000000 0.157227 0.000000
1.000000 0.140015 0.000000
1.000000 0.161652 0.000000
1.000000 0.187866 0.000000
0.000000 0.265808 0.146027
0.000000 0.278687 0.165741
0.000000 0.287964 0.174957
0.000000 0.291779 0.167633
0.000000 0.295380 0.159485
0.057159 0.298676 0.150024
0.120880 0.301727 0.138947
0.172913 0.304382 0.126770
0.220367 0.306610 0.112793
0.265747 0.308502 0.095520
0.310028 0.310028 0.073242
0.351624 0.309418 0.049744
0.392944 0.308502 0.018799
0.434418 0.307190 0.000000
0.476074 0.305359 0.000000
0.518036 0.302979 0.000000
0.560089 0.300018 0.000000
0.601318 0.296570 0.000000
0.641785 0.292755 0.000000
0.681519 0.288361 0.000000
0.720642 0.283539 0.000000
0.759064 0.278168 0.000000
0.796875 0.272278 0.000000
0.834015 0.265839 0.000000
0.870605 0.258759 0.000000
0.906525 0.251099 0.000000
0.941864 0.242706 0.000000
0.976562 0.233643 0.000000
1.000000 0.223755 0.000000
1.000000 0.213013 0.000000
1.000000 0.227600 0.000000
1.000000 0.249176 0.000000
0.000000 0.294037 0.160706
0.000000 0.307098 0.180695
0.000000 0.318054 0.194366
0.000000 0.321899 0.187164
0.000000 0.325684 0.179108
0.010223 0.329193 0.170197
0.096069 0.332458 0.159760
0.154388 0.335449 0.147797
0.205536 0.338013 0.134979
0.252991 0.340179 0.119720
0.298767 0.342102 0.101013
0.343628 0.343628 0.076752
0.385803 0.343018 0.050842
0.427826 0.342102 0.015442
0.469910 0.340881 0.000000
0.512238 0.339172 0.000000
0.554565 0.336945 0.000000
0.596130 0.334290 0.000000
0.636902 0.331299 0.000000
0.676880 0.327972 0.000000
0.716156 0.324158 0.000000
0.754791 0.320038 0.000000
0.792725 0.315430 0.000000
0.830048 0.310455 0.000000
0.866730 0.305023 0.000000
0.902802 0.299133 0.000000
0.938202 0.292816 0.000000
0.973053 0.286041 0.000000
1.000000 0.278809 0.000000
1.000000 0.271027 0.000000
1.000000 0.282074 0.000000
1.000000 0.301727 0.000000
0.000000 0.322693 0.175446
0.000000 0.335907 0.195587
0.000000 0.348450 0.213837
0.000000 0.352448 0.206696
0.000000 0.356323 0.198883
0.000000 0.359985 0.190186
0.060547 0.363464 0.180298
0.132141 0.366669 0.169067
0.187927 0.369537 0.156464
0.238434 0.372070 0.142670
0.286102 0.374268 0.126129
0.332245 0.376129 0.106079
0.377716 0.377716 0.079529
0.420441 0.377106 0.050568
0.463135 0.376190 0.010498
0.505859 0.375031 0.000000
0.548615 0.373444 0.000000
0.590485 0.371429 0.000000
0.631531 0.369110 0.000000
0.671814 0.366486 0.000000
0.711334 0.363586 0.000000
0.750153 0.360291 0.000000
0.788300 0.356720 0.000000
0.825775 0.352753 0.000000
0.862610 0.348511 0.000000
0.898773 0.343903 0.000000
0.934326 0.339020 0.000000
0.969269 0.333740 0.000000
1.000000 0.328156 0.000000
1.000000 0.322205 0.000000
1.000000 0.330872 0.000000
1.000000 0.349548 0.000000
0.000000 0.351654 0.190094
0.000000 0.365021 0.210632
0.000000 0.378448 0.231079
0.000000 0.383362 0.226440
0.000000 0.387329 0.218719
0.000000 0.391113 0.210175
0.000824 0.394745 0.200714
0.103271 0.398163 0.190002
0.166931 0.401306 0.177795
0.221466 0.404114 0.164703
0.271667 0.406586 0.149811
0.319550 0.408783 0.132080
0.366211 0.410675 0.110260
0.412262 0.412262 0.081238
0.455597 0.411621 0.049347
0.498901 0.410767 0.003601
0.542053 0.409637 0.000000
0.584351 0.408234 0.000000
0.625763 0.406494 0.000000
0.666351 0.404419 0.000000
0.706146 0.402130 0.000000
0.745148 0.399658 0.000000
0.783478 0.396790 0.000000
0.821167 0.393677 0.000000
0.858154 0.390320 0.000000
0.894501 0.386658 0.000000
0.930176 0.382812 0.000000
0.965240 0.378632 0.000000
0.999725 0.374237 0.000000
1.000000 0.369568 0.000000
1.000000 0.376526 0.000000
1.000000 0.394470 0.000000
0.000000 0.380981 0.204956
0.000000 0.394501 0.225708
0.000000 0.408081 0.246338
0.000000 0.414551 0.246185
0.000000 0.418640 0.238617
0.000000 0.422607 0.230255
0.000000 0.426331 0.221161
0.060028 0.429932 0.210938
0.141510 0.433350 0.199280
0.201477 0.436401 0.186310
0.255188 0.439117 0.172455
0.305267 0.441620 0.156586
0.353485 0.443756 0.137482
0.400635 0.445648 0.113800
0.447235 0.447235 0.082245
0.491272 0.446625 0.045929
0.535004 0.445801 0.000000
0.577698 0.444794 0.000000
0.619476 0.443634 0.000000
0.660370 0.442078 0.000000
0.700500 0.440308 0.000000
0.739807 0.438324 0.000000
0.778320 0.436157 0.000000
0.816223 0.433685 0.000000
0.853394 0.431061 0.000000
0.889893 0.428131 0.000000
0.925751 0.425079 0.000000
0.960907 0.421753 0.000000
0.995514 0.418274 0.000000
1.000000 0.414520 0.000000
1.000000 0.419922 0.000000
1.000000 0.437561 0.000000
0.000000 0.410614 0.219849
0.000000 0.424316 0.240784
0.000000 0.438019 0.261780
0.000000 0.446198 0.266144
0.000000 0.450378 0.258545
0.000000 0.454407 0.250366
0.000000 0.458313 0.241425
0.000000 0.462006 0.231598
0.107819 0.465546 0.220581
0.178009 0.468903 0.208099
0.236084 0.471924 0.194611
0.289124 0.474609 0.179840
0.339294 0.477051 0.162720
0.387878 0.479218 0.142242
0.435516 0.481110 0.116669
0.482697 0.482697 0.082092
0.527191 0.482117 0.040863
0.570465 0.481384 0.000000
0.612671 0.480591 0.000000
0.653900 0.479523 0.000000
0.694336 0.478271 0.000000
0.734009 0.476715 0.000000
0.772797 0.474976 0.000000
0.810883 0.473145 0.000000
0.848267 0.471069 0.000000
0.884949 0.468781 0.000000
0.920959 0.466278 0.000000
0.956329 0.463593 0.000000
0.991028 0.460785 0.000000
1.000000 0.457764 0.000000
1.000000 0.461548 0.000000
1.000000 0.478546 0.000000
0.000000 0.440643 0.234741
0.000000 0.454468 0.256073
0.000000 0.468384 0.277161
0.000000 0.478180 0.286163
0.000000 0.482513 0.278625
0.000000 0.486572 0.270599
0.000000 0.490631 0.261841
0.000000 0.494507 0.252289
0.054596 0.498138 0.241638
0.148773 0.501678 0.229767
0.213593 0.504974 0.216431
0.270721 0.507904 0.202515
0.323364 0.510590 0.186707
0.373688 0.513031 0.168396
0.422668 0.515137 0.146454
0.470886 0.516998 0.118896
0.518555 0.518555 0.080841
0.562561 0.518066 0.034271
0.605347 0.517365 0.000000
0.647064 0.516571 0.000000
0.687805 0.515656 0.000000
0.727722 0.514557 0.000000
0.766876 0.513184 0.000000
0.805237 0.511688 0.000000
0.842834 0.509979 0.000000
0.879730 0.508087 0.000000
0.915985 0.506042 0.000000
0.951477 0.503876 0.000000
0.986359 0.501526 0.000000
1.000000 0.499023 0.000000
1.000000 0.501404 0.000000
1.000000 0.517822 0.000000
0.000000 0.470978 0.249817
0.000000 0.484955 0.271240
0.000000 0.499054 0.292664
0.000000 0.510559 0.306427
0.000000 0.514862 0.298920
0.000000 0.519165 0.290863
0.000000 0.523224 0.282257
0.000000 0.527191 0.272888
0.000000 0.530975 0.262665
0.109497 0.534607 0.251343
0.187408 0.537994 0.238678
0.249451 0.541138 0.224792
0.305573 0.543945 0.210175
0.358154 0.546448 0.193481
0.408722 0.548798 0.173981
0.458130 0.550781 0.150696
0.506805 0.552490 0.121155
0.554016 0.554016 0.080597
0.597443 0.553528 0.028748
0.639709 0.552856 0.000000
0.680878 0.552155 0.000000
0.721161 0.551300 0.000000
0.760590 0.550323 0.000000
0.799255 0.549103 0.000000
0.837097 0.547699 0.000000
0.874237 0.546173 0.000000
0.910645 0.544464 0.000000
0.946381 0.542664 0.000000
0.981445 0.540710 0.000000
1.000000 0.538635 0.000000
1.000000 0.539612 0.000000
1.000000 0.555664 0.000000
0.000000 0.501678 0.264801
0.000000 0.515808 0.286560
0.000000 0.529999 0.308228
0.000000 0.543060 0.326782
0.000000 0.547363 0.319336
0.000000 0.551575 0.311432
0.000000 0.555725 0.302917
0.000000 0.559662 0.293854
0.000000 0.563477 0.283936
0.044281 0.567139 0.273071
0.154938 0.570557 0.261017
0.225159 0.573822 0.247589
0.285645 0.576752 0.233521
0.341064 0.579407 0.218109
0.393555 0.581818 0.200409
0.444458 0.583984 0.179840
0.494293 0.585846 0.155212
0.542480 0.587494 0.124146
0.588989 0.588989 0.081116
0.631866 0.588501 0.025879
0.673615 0.587860 0.000000
0.714264 0.587219 0.000000
0.753998 0.586456 0.000000
0.792938 0.585541 0.000000
0.831116 0.584442 0.000000
0.868500 0.583191 0.000000
0.905151 0.581818 0.000000
0.941071 0.580261 0.000000
0.976288 0.578644 0.000000
1.000000 0.576874 0.000000
1.000000 0.576660 0.000000
1.000000 0.592316 0.000000
0.000000 0.532623 0.279999
0.000000 0.546722 0.302032
0.000000 0.560760 0.324036
0.000000 0.574677 0.346069
0.000000 0.579468 0.340240
0.000000 0.583679 0.332367
0.000000 0.587769 0.324097
0.000000 0.591736 0.315125
0.000000 0.595520 0.305573
0.000000 0.599243 0.295013
0.111359 0.602722 0.283539
0.197052 0.605988 0.270905
0.262970 0.609070 0.256897
0.322235 0.611847 0.242401
0.377167 0.614349 0.226227
0.429718 0.616608 0.207703
0.480957 0.618652 0.186157
0.530243 0.620453 0.160339
0.577637 0.622040 0.128174
0.623535 0.623535 0.083466
0.665771 0.623047 0.025330
0.707001 0.622437 0.000000
0.747162 0.621796 0.000000
0.786377 0.621094 0.000000
0.824799 0.620239 0.000000
0.862457 0.619293 0.000000
0.899353 0.618134 0.000000
0.935486 0.616882 0.000000
0.970917 0.615448 0.000000
1.000000 0.614014 0.000000
1.000000 0.612610 0.000000
1.000000 0.627899 0.000000
0.000000 0.563324 0.295471
0.000000 0.577271 0.317871
0.000000 0.591156 0.340179
0.000000 0.604980 0.362549
0.000000 0.611237 0.361511
0.000000 0.615356 0.353760
0.000000 0.619446 0.345520
0.000000 0.623413 0.336823
0.000000 0.627258 0.327484
0.000000 0.630890 0.317352
0.034302 0.634430 0.306335
0.162231 0.637787 0.294250
0.237610 0.640869 0.280975
0.301117 0.643768 0.266724
0.359283 0.646362 0.251678
0.413849 0.648743 0.234772
0.466614 0.650848 0.215393
0.517212 0.652771 0.193024
0.565643 0.654510 0.166412
0.612335 0.656097 0.133636
0.657532 0.657532 0.087860
0.699188 0.657074 0.028503
0.739899 0.656525 0.000000
0.779510 0.655884 0.000000
0.818237 0.655212 0.000000
0.856140 0.654449 0.000000
0.893311 0.653534 0.000000
0.929657 0.652527 0.000000
0.965302 0.651398 0.000000
1.000000 0.650116 0.000000
1.000000 0.648804 0.000000
1.000000 0.662567 0.000000
0.000000 0.593719 0.311310
0.000000 0.607452 0.334045
0.000000 0.621216 0.356689
0.000000 0.634888 0.379303
0.000000 0.642578 0.383179
0.000000 0.646698 0.375519
0.000000 0.650726 0.367432
0.000000 0.654694 0.358887
0.000000 0.658447 0.349762
0.000000 0.662170 0.339966
0.000000 0.665680 0.329315
0.115356 0.669067 0.317810
0.207916 0.672272 0.305176
0.277588 0.675201 0.291290
0.339508 0.677917 0.276947
0.396759 0.680359 0.261200
0.451263 0.682556 0.243591
0.503326 0.684601 0.223602
0.552948 0.686462 0.200623
0.600555 0.688110 0.173645
0.646545 0.689667 0.140076
0.691071 0.691071 0.094208
0.732178 0.690613 0.036285
0.772308 0.690094 0.000000
0.811401 0.689484 0.000000
0.849579 0.688904 0.000000
0.886993 0.688141 0.000000
0.923615 0.687347 0.000000
0.959503 0.686432 0.000000
0.994659 0.685394 0.000000
1.000000 0.684235 0.000000
1.000000 0.696442 0.000000
0.000000 0.623688 0.327515
0.000000 0.637329 0.350555
0.000000 0.650940 0.373474
0.000000 0.664429 0.396423
0.000000 0.673553 0.405304
0.000000 0.677643 0.397675
0.000000 0.681641 0.389709
0.000000 0.685547 0.381348
0.000000 0.689362 0.372314
0.000000 0.692993 0.362823
0.000000 0.696564 0.352600
0.029266 0.699951 0.341553
0.171478 0.703156 0.329529
0.251312 0.706177 0.316376
0.317596 0.708954 0.302185
0.378082 0.711487 0.287476
0.434875 0.713776 0.271210
0.488617 0.715881 0.252960
0.539490 0.717834 0.232544
0.588196 0.719635 0.209290
0.635010 0.721222 0.181824
0.680237 0.722748 0.148132
0.724152 0.724152 0.102722
0.764679 0.723694 0.048065
0.804199 0.723175 0.000000
0.842773 0.722595 0.000000
0.880463 0.722046 0.000000
0.917328 0.721375 0.000000
0.953461 0.720612 0.000000
0.988831 0.719788 0.000000
1.000000 0.718842 0.000000
1.000000 0.729523 0.000000
0.000000 0.653381 0.344086
0.000000 0.666870 0.367401
0.000000 0.680298 0.390656
0.000000 0.693665 0.413849
0.000000 0.704132 0.427765
0.000000 0.708191 0.420258
0.000000 0.712158 0.412445
0.000000 0.716034 0.404175
0.000000 0.719818 0.395416
0.000000 0.723480 0.386078
0.000000 0.726959 0.376190
0.000000 0.730408 0.365540
0.122467 0.733612 0.354004
0.220642 0.736664 0.341492
0.293549 0.739563 0.327820
0.357727 0.742126 0.313629
0.417145 0.744507 0.298401
0.472931 0.746674 0.281677
0.525330 0.748688 0.263123
0.575073 0.750580 0.242340
0.622894 0.752319 0.218781
0.668945 0.753876 0.191071
0.713501 0.755371 0.157593
0.756714 0.756714 0.113403
0.796661 0.756287 0.062836
0.835632 0.755798 0.000000
0.873688 0.755249 0.000000
0.910828 0.754730 0.000000
0.947144 0.754120 0.000000
0.982788 0.753418 0.000000
1.000000 0.752625 0.000000
1.000000 0.761932 0.000000
0.000000 0.682739 0.360992
0.000000 0.696075 0.384613
0.000000 0.709351 0.408112
0.000000 0.722534 0.431641
0.000000 0.734314 0.450714
0.000000 0.738342 0.443268
0.000000 0.742279 0.435486
0.000000 0.746155 0.427307
0.000000 0.749878 0.418762
0.000000 0.753540 0.409698
0.000000 0.757080 0.400055
0.000000 0.760406 0.389801
0.032532 0.763702 0.378723
0.183136 0.766754 0.366760
0.266602 0.769653 0.353851
0.335266 0.772369 0.339783
0.397949 0.774780 0.325378
0.456177 0.777008 0.309753
0.510284 0.779114 0.292664
0.561401 0.781036 0.273865
0.610168 0.782837 0.252960
0.657135 0.784515 0.229218
0.702362 0.786041 0.201660
0.746216 0.787476 0.168610
0.788818 0.788818 0.125610
0.828186 0.788422 0.079712
0.866608 0.787933 0.000000
0.904083 0.787384 0.000000
0.940674 0.786896 0.000000
0.976532 0.786316 0.000000
1.000000 0.785675 0.000000
1.000000 0.793610 0.000000
0.000000 0.711731 0.378296
0.000000 0.724915 0.402130
0.000000 0.738007 0.425964
0.000000 0.751038 0.449768
0.000000 0.764008 0.473389
0.000000 0.768127 0.466522
0.000000 0.772034 0.458923
0.000000 0.775848 0.450928
0.000000 0.779602 0.442535
0.000000 0.783203 0.433624
0.000000 0.786713 0.424255
0.000000 0.790100 0.414246
0.000000 0.793304 0.403595
0.133453 0.796417 0.392151
0.235413 0.799347 0.379822
0.311066 0.802063 0.366516
0.377167 0.804596 0.352356
0.438110 0.806854 0.337677
0.494293 0.809021 0.321808
0.546967 0.811005 0.304443
0.596863 0.812866 0.285461
0.644684 0.814606 0.264343
0.690796 0.816223 0.240631
0.735321 0.817719 0.213287
0.778503 0.819122 0.180817
0.820435 0.820435 0.139648
0.859192 0.820007 0.097748
0.897064 0.819580 0.024384
0.933990 0.819031 0.000000
0.970093 0.818604 0.000000
1.000000 0.818054 0.000000
1.000000 0.824677 0.000000
0.000000 0.740417 0.395935
0.000000 0.753418 0.420074
0.000000 0.766357 0.444153
0.000000 0.779236 0.468079
0.000000 0.792053 0.491547
0.000000 0.797546 0.489746
0.000000 0.801392 0.482300
0.000000 0.805206 0.474457
0.000000 0.808899 0.466309
0.000000 0.812469 0.457733
0.000000 0.815948 0.448639
0.000000 0.819336 0.438965
0.000000 0.822571 0.428650
0.046967 0.825653 0.417725
0.197632 0.828613 0.405945
0.283813 0.831360 0.393250
0.354706 0.833923 0.379517
0.418732 0.836273 0.365387
0.477234 0.838440 0.350494
0.531677 0.840485 0.334412
0.582947 0.842407 0.316925
0.631805 0.844208 0.297852
0.678711 0.845886 0.276764
0.723969 0.847473 0.253143
0.767792 0.848907 0.226166
0.810272 0.850281 0.194489
0.851562 0.851562 0.155090
0.889771 0.851166 0.116882
0.927032 0.850708 0.058807
0.963409 0.850220 0.000000
0.998993 0.849792 0.000000
1.000000 0.855164 0.000000
0.000000 0.768707 0.413971
0.000000 0.781586 0.438354
0.000000 0.794373 0.462555
0.000000 0.807098 0.486298
0.000000 0.819733 0.509644
0.000000 0.825012 0.507385
0.000000 0.830231 0.504944
0.000000 0.834137 0.497833
0.000000 0.837799 0.489838
0.000000 0.841370 0.481506
0.000000 0.844818 0.472717
0.000000 0.848175 0.463409
0.000000 0.851410 0.453522
0.000000 0.854492 0.443054
0.148651 0.857391 0.431824
0.252472 0.860229 0.419800
0.330322 0.862793 0.406830
0.397797 0.865234 0.392914
