src/assets/textures/look32.CUBE
#Created by: Adobe Photoshop Export Color Lookup Plugin
TITLE "Unbenannt-1"
#LUT size
LUT_3D_SIZE 8
#data domain
#LUT data points
DOMAIN_MIN 0.000000 0.000000 0.000000
DOMAIN_MAX 0.903226 0.903226 0.903226
0.000000 0.000000 0.000000
0.131226 0.000000 0.000000
0.267212 0.000000 0.000000
0.411438 0.000000 0.000000
0.563751 0.000000 0.000000
0.714081 0.000000 0.000000
0.856171 0.000000 0.000000
0.989990 0.000000 0.000000
0.000000 0.103302 0.059387
0.118225 0.118225 0.038910
0.268433 0.110962 0.000000
0.422729 0.083099 0.000000
0.584381 0.000000 0.000000
0.741272 0.000000 0.000000
0.888916 0.000000 0.000000
1.000000 0.000000 0.000000
0.000000 0.210297 0.116882
0.051331 0.235626 0.119995
0.244263 0.244263 0.064117
0.405151 0.239105 0.000000
0.569611 0.223450 0.000000
0.728577 0.194702 0.000000
0.877533 0.147369 0.000000
1.000000 0.049835 0.000000
0.000000 0.322693 0.175446
0.000000 0.356323 0.198883
0.187927 0.369537 0.156464
0.377716 0.377716 0.079529
0.548615 0.373444 0.000000
0.711334 0.363586 0.000000
0.862610 0.348511 0.000000
1.000000 0.328156 0.000000
0.000000 0.440643 0.234741
0.000000 0.482513 0.278625
0.054596 0.498138 0.241638
0.323364 0.510590 0.186707
0.518555 0.518555 0.080841
0.687805 0.515656 0.000000
0.842834 0.509979 0.000000
0.986359 0.501526 0.000000
0.000000 0.563324 0.295471
0.000000 0.611237 0.361511
0.000000 0.627258 0.327484
0.237610 0.640869 0.280975
0.466614 0.650848 0.215393
0.657532 0.657532 0.087860
0.818237 0.655212 0.000000
0.965302 0.651398 0.000000
0.000000 0.682739 0.360992
0.000000 0.734314 0.450714
0.000000 0.749878 0.418762
0.032532 0.763702 0.378723
0.397949 0.774780 0.325378
0.610168 0.782837 0.252960
0.788818 0.788818 0.125610
0.940674 0.786896 0.000000
0.000000 0.796661 0.432373
0.000000 0.839905 0.502167
0.000000 0.860321 0.491211
0.000000 0.879364 0.476257
0.303101 0.891266 0.433502
0.552856 0.900085 0.377380
0.745178 0.906982 0.303925
0.912384 0.912384 0.189789
0.000000 0.000000 0.064392
0.131256 0.000000 0.051361
0.267334 0.000000 0.011047
0.411560 0.000000 0.000000
0.563843 0.000000 0.000000
0.714142 0.000000 0.000000
0.856201 0.000000 0.000000
0.990021 0.000000 0.000000
0.000000 0.103302 0.127563
0.118103 0.118103 0.118103
0.268555 0.110687 0.085907
0.422913 0.082001 0.000000
0.584503 0.000000 0.000000
0.741364 0.000000 0.000000
0.888977 0.000000 0.000000
1.000000 0.000000 0.000000
0.000000 0.210297 0.191162
0.051331 0.235626 0.199127
0.244324 0.244324 0.163818
0.405243 0.238983 0.121216
0.569763 0.222931 0.000031
0.728699 0.193817 0.000000
0.877594 0.146027 0.000000
1.000000 0.046265 0.000000
0.000000 0.322693 0.254913
0.000000 0.356323 0.280365
0.187469 0.369598 0.248810
0.377838 0.377838 0.202637
0.548706 0.373352 0.148560
0.711456 0.363251 0.000000
0.862671 0.347992 0.000000
1.000000 0.327423 0.000000
0.000000 0.440643 0.319244
0.000000 0.482513 0.363434
0.054596 0.498138 0.333466
0.322449 0.510712 0.292450
0.518677 0.518677 0.235382
0.687836 0.515625 0.171753
0.842926 0.509766 0.002747
0.986389 0.501160 0.000000
0.000000 0.563324 0.384552
0.000000 0.611237 0.449493
0.000000 0.627258 0.420380
0.237610 0.640869 0.383606
0.466064 0.650970 0.335419
0.657654 0.657654 0.269836
0.818298 0.655182 0.201477
0.965332 0.651245 0.053925
0.000000 0.682739 0.453674
0.000000 0.734314 0.539703
0.000000 0.749878 0.512054
0.032532 0.763702 0.478638
0.397186 0.774872 0.436066
0.609833 0.782928 0.383362
0.788910 0.788910 0.314362
0.940735 0.786835 0.246948
0.000000 0.796661 0.525818
0.000000 0.839905 0.590607
0.000000 0.860321 0.581848
0.000000 0.879364 0.570068
0.303101 0.891266 0.534790
0.552246 0.900146 0.489624
0.744965 0.907043 0.436005
0.912415 0.912415 0.368286
0.000000 0.000000 0.124207
0.131256 0.000000 0.117249
0.267334 0.000000 0.097961
0.411560 0.000000 0.047363
0.563843 0.000000 0.000000
0.714142 0.000000 0.000000
0.856232 0.000000 0.000000
0.990051 0.000000 0.000000
0.000000 0.103302 0.192902
0.117523 0.117523 0.187286
0.268616 0.110443 0.165619
0.423004 0.081329 0.125183
0.584625 0.000000 0.016846
0.741455 0.000000 0.000000
0.889038 0.000000 0.000000
1.000000 0.000000 0.000000
0.000000 0.210297 0.261414
0.050934 0.235382 0.271851
0.243835 0.243835 0.243835
0.405182 0.238983 0.215027
0.569885 0.222504 0.164948
0.728821 0.192841 0.058228
0.877686 0.144348 0.000000
1.000000 0.041321 0.000000
0.000000 0.322693 0.329803
0.000000 0.356293 0.357117
0.187469 0.369598 0.330627
0.377747 0.377747 0.293884
0.548676 0.373322 0.258514
0.711517 0.363007 0.201935
0.862762 0.347443 0.099548
1.000000 0.326660 0.000000
0.000000 0.440643 0.398651
0.000000 0.482513 0.444031
0.054596 0.498138 0.417664
0.322083 0.510742 0.383789
0.518707 0.518707 0.339203
0.687836 0.515625 0.299011
0.842987 0.509644 0.238708
0.986450 0.500824 0.140991
0.000000 0.563324 0.468414
0.000000 0.611237 0.533447
0.000000 0.627258 0.507416
0.237610 0.640869 0.475800
0.465393 0.651031 0.435333
0.657715 0.657715 0.385406
0.818268 0.655212 0.342865
0.965363 0.651184 0.282898
0.000000 0.682739 0.540192
0.000000 0.734314 0.621826
0.000000 0.749878 0.597046
0.032532 0.763702 0.567963
0.397186 0.774872 0.532349
0.609497 0.782990 0.488953
0.788971 0.788971 0.436798
0.940735 0.786835 0.393372
0.000000 0.796661 0.610687
0.000000 0.839905 0.672180
0.000000 0.860321 0.664886
0.000000 0.879364 0.655212
0.303101 0.891266 0.624603
0.551910 0.900177 0.586060
0.744812 0.907074 0.541748
0.912445 0.912445 0.489349
0.000000 0.000000 0.185852
0.131226 0.000000 0.181335
0.267334 0.000000 0.169586
0.411560 0.000000 0.144592
0.563843 0.000000 0.090576
0.714142 0.000000 0.000000
0.856232 0.000000 0.000000
0.990051 0.000000 0.000000
0.000000 0.103302 0.258423
0.116821 0.116821 0.254730
0.268768 0.109833 0.237701
0.423004 0.081146 0.209381
0.584656 0.000000 0.160614
0.741486 0.000000 0.054443
0.889069 0.000000 0.000000
1.000000 0.000000 0.000000
0.000000 0.210297 0.330902
0.050751 0.235016 0.342865
0.242889 0.242889 0.318695
0.405334 0.238647 0.295380
0.569916 0.222260 0.260376
0.728912 0.192047 0.207245
0.877808 0.142578 0.115234
1.000000 0.035187 0.000000
0.000000 0.322693 0.403381
0.000000 0.356079 0.432037
0.187225 0.369171 0.408386
0.377136 0.377136 0.377136
0.548553 0.373413 0.348877
0.711548 0.362915 0.308960
0.862854 0.347046 0.254181
1.000000 0.325928 0.170990
0.000000 0.440643 0.476318
0.000000 0.482452 0.523010
0.054596 0.498138 0.498993
0.322083 0.510742 0.469421
0.518524 0.518524 0.431122
0.687744 0.515656 0.399536
0.842987 0.509613 0.356995
0.986481 0.500610 0.301819
0.000000 0.563324 0.549591
0.000000 0.611237 0.612793
0.000000 0.627258 0.589264
0.237610 0.640869 0.561554
0.465149 0.651031 0.527008
0.657654 0.657654 0.484955
0.818146 0.655334 0.452301
0.965363 0.651184 0.409149
0.000000 0.682739 0.620819
0.000000 0.734314 0.699097
0.000000 0.749878 0.676331
0.032532 0.763702 0.650330
0.397186 0.774872 0.619171
0.609161 0.782959 0.581512
0.788971 0.788971 0.538055
0.940674 0.786987 0.504791
0.000000 0.796661 0.689819
0.000000 0.839905 0.748779
0.000000 0.860321 0.742554
0.000000 0.879364 0.734344
0.303101 0.891266 0.707031
0.551910 0.900177 0.673126
0.744690 0.907074 0.634552
0.912445 0.912445 0.590393
0.000000 0.000000 0.249207
0.131165 0.000000 0.246002
0.267334 0.000000 0.237854
0.411560 0.000000 0.221222
0.563843 0.000000 0.190887
0.714142 0.000000 0.137299
0.856232 0.000000 0.001801
0.990051 0.000000 0.000000
0.000000 0.103302 0.324982
0.116364 0.116364 0.322327
0.268524 0.109222 0.307861
0.423035 0.080872 0.285187
0.584656 0.000000 0.250610
0.741486 0.000000 0.197510
0.889069 0.000000 0.101929
1.000000 0.000000 0.000000
0.000000 0.210297 0.400909
0.050659 0.234772 0.413940
0.242096 0.242096 0.391693
0.405670 0.237793 0.372162
0.569977 0.221924 0.343964
0.728943 0.191864 0.305511
0.877808 0.142181 0.252625
1.000000 0.032257 0.172394
0.000000 0.322693 0.476990
0.000000 0.355927 0.506927
0.186829 0.368530 0.484497
0.376190 0.376190 0.456909
0.548737 0.373016 0.432251
0.711578 0.362823 0.400696
0.862885 0.346863 0.360229
1.000000 0.325378 0.308136
0.000000 0.440643 0.553436
0.000000 0.482361 0.599945
0.054504 0.497681 0.577606
0.321747 0.510254 0.551483
0.517914 0.517914 0.517914
0.687622 0.515747 0.490784
0.842957 0.509705 0.456848
0.986481 0.500580 0.415436
0.000000 0.563324 0.626862
0.000000 0.611176 0.688080
0.000000 0.627106 0.666351
0.237610 0.640869 0.641693
0.465149 0.651031 0.611389
0.657440 0.657440 0.574432
0.818054 0.655396 0.546692
0.965332 0.651306 0.512177
0.000000 0.682739 0.696991
0.000000 0.734283 0.772461
0.000000 0.749878 0.751404
0.032532 0.763702 0.727661
0.397186 0.774872 0.699707
0.609039 0.782928 0.666412
0.788879 0.788879 0.628174
0.940552 0.787170 0.600372
0.000000 0.796661 0.764709
0.000000 0.839905 0.821503
0.000000 0.860321 0.816101
0.000000 0.879364 0.809052
0.303101 0.891266 0.784241
0.551910 0.900177 0.753723
0.744629 0.907043 0.719177
0.912415 0.912415 0.680450
0.000000 0.000000 0.314270
0.131134 0.000000 0.311829
0.267273 0.000000 0.305756
0.411560 0.000000 0.293518
0.563843 0.000000 0.272369
0.714142 0.000000 0.239502
0.856232 0.000000 0.190063
0.990051 0.000000 0.104156
0.000000 0.103302 0.392853
0.116180 0.116180 0.390778
0.268097 0.108978 0.377716
0.423096 0.080475 0.358704
0.584656 0.000000 0.330933
0.741486 0.000000 0.292450
0.889069 0.000000 0.238617
1.000000 0.000000 0.154266
0.000000 0.210297 0.471863
0.050629 0.234619 0.485840
0.241516 0.241516 0.464569
0.405334 0.236908 0.447784
0.570068 0.221497 0.423523
0.728973 0.191650 0.392456
0.877808 0.142029 0.352936
1.000000 0.031952 0.301758
0.000000 0.322693 0.551239
0.000000 0.355835 0.581848
0.186584 0.368073 0.560547
0.375244 0.375244 0.535156
0.549194 0.372009 0.513763
0.711700 0.362366 0.486359
0.862915 0.346588 0.453430
1.000000 0.325165 0.413574
0.000000 0.440643 0.628357
0.000000 0.482300 0.673706
0.054443 0.497345 0.652771
0.321228 0.509460 0.628815
0.517059 0.517059 0.599396
0.687836 0.515381 0.575012
0.842957 0.509644 0.546692
0.986481 0.500671 0.513214
0.000000 0.563324 0.700745
0.000000 0.611145 0.760193
0.000000 0.626862 0.739716
0.237366 0.640259 0.716797
0.464813 0.650543 0.689850
0.656921 0.656921 0.656921
0.817963 0.655457 0.632050
0.965302 0.651489 0.602936
0.000000 0.682739 0.769714
0.000000 0.734253 0.842712
0.000000 0.749725 0.822784
0.032501 0.763458 0.800812
0.397186 0.774841 0.775635
0.609039 0.782928 0.745483
0.788696 0.788696 0.711029
0.940521 0.787231 0.686096
0.000000 0.796661 0.835999
0.000000 0.839874 0.890900
0.000000 0.860260 0.886108
0.000000 0.879364 0.880005
0.303101 0.891266 0.857147
0.551910 0.900177 0.829285
0.744629 0.907013 0.797852
0.912384 0.912384 0.763000
0.000000 0.000000 0.381012
0.131104 0.000000 0.379089
0.267212 0.000000 0.374298
0.411560 0.000000 0.364899
0.563843 0.000000 0.348816
0.714142 0.000000 0.325012
0.856232 0.000000 0.292450
0.990051 0.000000 0.248169
0.000000 0.103302 0.462250
0.116058 0.116058 0.460541
0.267792 0.108856 0.448364
0.423065 0.080017 0.431793
0.584656 0.000000 0.408051
0.741486 0.000000 0.377045
0.889069 0.000000 0.337067
1.000000 0.000000 0.284637
0.000000 0.210297 0.544159
0.050568 0.234528 0.558807
0.241119 0.241119 0.538177
0.404633 0.236450 0.522766
0.570190 0.220917 0.501801
0.729004 0.191376 0.475067
0.877838 0.141815 0.442627
1.000000 0.031616 0.403229
0.000000 0.322693 0.624573
0.000000 0.355774 0.654633
0.186401 0.367737 0.634491
0.374542 0.374542 0.611145
0.548859 0.370972 0.592712
0.711823 0.361786 0.568481
0.862946 0.346252 0.540375
1.000000 0.324951 0.507568
0.000000 0.440643 0.700470
0.000000 0.482239 0.744781
0.054382 0.497101 0.724945
0.320831 0.508850 0.702606
0.516174 0.516174 0.675934
0.688293 0.514435 0.654480
0.843079 0.509155 0.629181
0.986511 0.500336 0.600464
0.000000 0.563324 0.771729
0.000000 0.611115 0.829529
0.000000 0.626678 0.810120
0.237152 0.639771 0.788574
0.464203 0.649719 0.763702
0.656250 0.656250 0.734161
0.818176 0.655151 0.711243
0.965302 0.651428 0.685791
0.000000 0.682739 0.839478
0.000000 0.734253 0.910156
0.000000 0.749603 0.891205
0.032471 0.763092 0.870453
0.396790 0.774139 0.846924
0.608704 0.782501 0.819702
0.788330 0.788330 0.788330
0.940460 0.787292 0.765411
0.000000 0.796661 0.904327
0.000000 0.839844 0.957428
0.000000 0.860138 0.953064
0.000000 0.879089 0.947510
0.303009 0.890961 0.926331
0.551910 0.900177 0.900909
0.744629 0.907013 0.871857
0.912262 0.912262 0.839935
0.000000 0.000000 0.449524
0.131073 0.000000 0.447968
0.267181 0.000000 0.444092
0.411530 0.000000 0.436554
0.563843 0.000000 0.423767
0.714142 0.000000 0.405273
0.856232 0.000000 0.380951
0.990051 0.000000 0.350006
0.000000 0.103302 0.533203
0.115967 0.115967 0.531799
0.267609 0.108765 0.520142
0.422760 0.079926 0.504974
0.584686 0.000000 0.484283
0.741486 0.000000 0.457794
0.889069 0.000000 0.425201
1.000000 0.000000 0.385162
0.000000 0.210297 0.616516
0.050568 0.234467 0.631165
0.240814 0.240814 0.611450
0.404144 0.236145 0.597382
0.570221 0.220215 0.579254
0.729034 0.191010 0.555511
0.877838 0.141571 0.527710
1.000000 0.031189 0.495087
0.000000 0.322693 0.695618
0.000000 0.355713 0.725128
0.186249 0.367493 0.705933
0.373993 0.373993 0.684082
0.548035 0.370392 0.667419
0.711975 0.361023 0.646301
0.863007 0.345856 0.621368
1.000000 0.324707 0.593079
0.000000 0.440643 0.770172
0.000000 0.482208 0.813416
0.054352 0.496918 0.794525
0.320526 0.508392 0.773438
0.515411 0.515411 0.748810
0.687988 0.513397 0.729980
0.843262 0.508545 0.706848
0.986572 0.499939 0.681335
0.000000 0.563324 0.840179
0.000000 0.611084 0.896393
0.000000 0.626556 0.877869
0.237000 0.639404 0.857483
0.463684 0.649048 0.834198
0.655518 0.655518 0.807129
0.818542 0.654358 0.786499
0.965393 0.651001 0.763092
0.000000 0.682739 0.906555
0.000000 0.734222 0.975098
0.000000 0.749481 0.957001
0.032440 0.762787 0.937317
0.396484 0.773560 0.915161
0.608093 0.781738 0.889832
0.787872 0.787872 0.861115
0.940582 0.787079 0.839752
0.000000 0.796661 0.969940
0.000000 0.839844 1.000000
0.000000 0.860046 1.000000
0.000000 0.878845 1.000000
0.302826 0.890503 0.992218
0.551453 0.899475 0.968292
0.744354 0.906677 0.941650
0.912109 0.912109 0.912109
