src/assets/textures/look32.CUBE
#Created by: Adobe Photoshop Export Color Lookup Plugin
TITLE "Unbenannt-1"
#LUT size
LUT_3D_SIZE 5
#data domain
#LUT data points
DOMAIN_MIN 0.000000 0.000000 0.000000
DOMAIN_MAX 0.903226 0.903226 0.903226
0.000000 0.000000 0.000000
0.232391 0.000000 0.000000
0.486633 0.000000 0.000000
0.750397 0.000000 0.000000
0.989990 0.000000 0.000000
0.000000 0.183014 0.102448
0.212006 0.212006 0.058990
0.491425 0.195007 0.000000
0.770172 0.126770 0.000000
1.000000 0.000000 0.000000
0.000000 0.380981 0.204956
0.060028 0.429932 0.210938
0.447235 0.447235 0.082245
0.739807 0.438324 0.000000
0.995514 0.418274 0.000000
0.000000 0.593719 0.311310
0.000000 0.654694 0.358887
0.339508 0.677917 0.276947
0.691071 0.691071 0.094208
0.959503 0.686432 0.000000
0.000000 0.796661 0.432373
0.000000 0.855316 0.494263
0.069885 0.885834 0.457214
0.604279 0.901947 0.361176
0.912384 0.912384 0.189789
0.000000 0.000000 0.109131
0.232513 0.000000 0.086395
0.486725 0.000000 0.000000
0.750458 0.000000 0.000000
0.990051 0.000000 0.000000
0.000000 0.183014 0.227142
0.211670 0.211670 0.211670
0.491669 0.194244 0.145660
0.770355 0.124146 0.000000
1.000000 0.000000 0.000000
0.000000 0.380981 0.345123
0.060028 0.429932 0.361206
0.447357 0.447357 0.294098
0.739929 0.438019 0.205566
0.995605 0.417389 0.000000
0.000000 0.593719 0.465363
0.000000 0.654694 0.515961
0.338715 0.677979 0.457642
0.691254 0.691254 0.370544
0.959564 0.686279 0.276154
0.000000 0.796661 0.590057
0.000000 0.855316 0.646790
0.069885 0.885834 0.620300
0.603485 0.902039 0.552063
0.912445 0.912445 0.461548
0.000000 0.000000 0.217346
0.232513 0.000000 0.207092
0.486725 0.000000 0.167786
0.750458 0.000000 0.014557
0.990051 0.000000 0.000000
0.000000 0.183014 0.347229
0.210114 0.210114 0.339020
0.491760 0.193756 0.298126
0.770477 0.122253 0.216858
1.000000 0.000000 0.000000
0.000000 0.380981 0.477448
0.059937 0.429504 0.498596
0.446625 0.446625 0.446625
0.739929 0.438019 0.392059
0.995667 0.416687 0.306793
0.000000 0.593719 0.606659
0.000000 0.654663 0.656006
0.338715 0.677979 0.609497
0.691162 0.691162 0.544281
0.959534 0.686371 0.486389
0.000000 0.796661 0.727722
0.000000 0.855316 0.781372
0.069885 0.885834 0.760437
0.603302 0.902039 0.705414
0.912445 0.912445 0.636536
0.000000 0.000000 0.330780
0.232391 0.000000 0.324646
0.486725 0.000000 0.302826
0.750458 0.000000 0.252319
0.990051 0.000000 0.150024
0.000000 0.183014 0.469849
0.209259 0.209259 0.464478
0.491943 0.192841 0.433167
0.770477 0.121918 0.380280
1.000000 0.000000 0.298523
0.000000 0.380981 0.608734
0.059814 0.428986 0.631378
0.444977 0.444977 0.587769
0.740082 0.437500 0.545471
0.995697 0.416412 0.488373
0.000000 0.593719 0.736206
0.000000 0.654388 0.783752
0.338348 0.677338 0.743866
0.690491 0.690491 0.690491
0.959473 0.686646 0.645325
0.000000 0.796661 0.853333
0.000000 0.855255 0.904388
0.069885 0.885834 0.887085
0.603302 0.902039 0.840179
0.912354 0.912354 0.782715
0.000000 0.000000 0.449524
0.232330 0.000000 0.445343
0.486725 0.000000 0.430908
0.750458 0.000000 0.399750
0.990051 0.000000 0.350006
0.000000 0.183014 0.596039
0.208771 0.208771 0.592133
0.491486 0.191956 0.566071
0.770508 0.121460 0.524841
1.000000 0.000000 0.468597
0.000000 0.380981 0.733459
0.059723 0.428680 0.755890
0.443726 0.443726 0.717468
0.740448 0.436127 0.683258
0.995758 0.415863 0.638214
0.000000 0.593719 0.857086
0.000000 0.654236 0.902771
0.337830 0.676361 0.866730
0.689362 0.689362 0.820953
0.959564 0.686188 0.782684
0.000000 0.796661 0.969940
0.000000 0.855133 1.000000
0.069794 0.885162 1.000000
0.602875 0.901398 0.961914
0.912109 0.912109 0.912109
