src/bin/assets/textures/look32.CUBE
#Created by: Adobe Photoshop Export Color Lookup Plugin
TITLE "Unbenannt-1"
#LUT size
LUT_3D_SIZE 8
#data domain
#LUT data points
DOMAIN_MIN 0.000000 0.000000 0.000000
DOMAIN_MAX 0.903226 0.903226 0.903226
0.000000 0.000000 0.000000
0.072876 0.000000 0.000000
0.247070 0.000000 0.000000
0.430908 0.000000 0.000000
0.630402 0.000000 0.000000
0.806580 0.000000 0.000000
0.942780 0.000000 0.000000
1.000000 0.000000 0.000000
0.000000 0.059967 0.020844
0.064148 0.064148 0.012115
0.251831 0.037445 0.000000
0.443481 0.000000 0.000000
0.650513 0.000000 0.000000
0.832581 0.000000 0.000000
0.970337 0.000000 0.000000
1.000000 0.000000 0.000000
0.000000 0.206085 0.052094
0.000000 0.220154 0.055695
0.227570 0.227570 0.000000
0.428192 0.210266 0.000000
0.638123 0.173523 0.000000
0.821625 0.101501 0.000000
0.962891 0.000000 0.000000
1.000000 0.000000 0.000000
0.000000 0.359650 0.073517
0.000000 0.379242 0.108398
0.125488 0.394592 0.000000
0.398499 0.398499 0.000000
0.617615 0.382385 0.000000
0.804718 0.362274 0.000000
0.947723 0.339844 0.000000
1.000000 0.322815 0.000000
0.000000 0.526703 0.084259
0.000000 0.546997 0.132538
0.000000 0.569458 0.007385
0.312378 0.579865 0.000000
0.583038 0.583038 0.000000
0.778290 0.570343 0.000000
0.924835 0.559235 0.000000
1.000000 0.549408 0.000000
0.000000 0.677032 0.089081
0.000000 0.696686 0.149597
0.000000 0.722992 0.110046
0.143646 0.736877 0.000000
0.516846 0.743378 0.000000
0.745361 0.745361 0.000000
0.897430 0.735718 0.000000
1.000000 0.729095 0.000000
0.000000 0.793610 0.096588
0.000000 0.812836 0.165527
0.000000 0.842072 0.168762
0.000000 0.856598 0.000000
0.443665 0.865051 0.000000
0.698029 0.869110 0.000000
0.870209 0.870209 0.000000
0.980957 0.863129 0.000000
0.000000 0.878387 0.106079
0.000000 0.893311 0.148224
0.000000 0.912964 0.000000
0.000000 0.931732 0.000000
0.401459 0.946625 0.000000
0.656189 0.957336 0.000000
0.837311 0.959564 0.000000
0.960205 0.960205 0.000000
0.000000 0.000000 0.048553
0.072998 0.000000 0.042358
0.247803 0.000000 0.000000
0.431610 0.000000 0.000000
0.630890 0.000000 0.000000
0.806854 0.000000 0.000000
0.942932 0.000000 0.000000
1.000000 0.000000 0.000000
0.000000 0.059967 0.069397
0.063873 0.063873 0.063873
0.253021 0.030121 0.001923
0.444336 0.000000 0.000000
0.650970 0.000000 0.000000
0.832825 0.000000 0.000000
0.970490 0.000000 0.000000
1.000000 0.000000 0.000000
0.000000 0.206085 0.115051
0.000000 0.220154 0.123962
0.228516 0.228516 0.049011
0.429260 0.207977 0.000000
0.638885 0.168640 0.000000
0.822052 0.092010 0.000000
0.963135 0.000000 0.000000
1.000000 0.000000 0.000000
0.000000 0.359650 0.151794
0.000000 0.379242 0.180695
0.108734 0.396027 0.091888
0.399628 0.399628 0.000000
0.618500 0.381073 0.000000
0.805328 0.359558 0.000000
0.948090 0.336334 0.000000
1.000000 0.318756 0.000000
0.000000 0.526703 0.182312
0.000000 0.546997 0.217285
0.000000 0.569458 0.170044
0.306396 0.581055 0.000000
0.584045 0.584045 0.000000
0.778931 0.569580 0.000000
0.925262 0.557617 0.000000
1.000000 0.547272 0.000000
0.000000 0.677032 0.206482
0.000000 0.696686 0.246033
0.000000 0.722992 0.230743
0.115295 0.737885 0.022125
0.514221 0.744232 0.000000
0.746063 0.746063 0.000000
0.897888 0.735077 0.000000
1.000000 0.728058 0.000000
0.000000 0.793610 0.226593
0.000000 0.812836 0.269714
0.000000 0.842072 0.278656
0.000000 0.856598 0.143585
0.437805 0.865692 0.000000
0.696777 0.869629 0.000000
0.870575 0.870575 0.000000
0.981171 0.862518 0.000000
0.000000 0.878387 0.242737
0.000000 0.893311 0.268066
0.000000 0.912964 0.220123
0.000000 0.931732 0.053497
0.393585 0.947052 0.000000
0.653503 0.957642 0.000000
0.836517 0.959778 0.000000
0.960327 0.960327 0.000000
0.000000 0.000000 0.154938
0.072723 0.000000 0.152924
0.247803 0.000000 0.137695
0.431610 0.000000 0.092346
0.630981 0.000000 0.000000
0.807007 0.000000 0.000000
0.943085 0.000000 0.000000
1.000000 0.000000 0.000000
0.000000 0.059967 0.180695
0.057739 0.057739 0.180847
0.253693 0.025177 0.156647
0.445129 0.000000 0.098938
0.651703 0.000000 0.000000
0.833405 0.000000 0.000000
0.970886 0.000000 0.000000
1.000000 0.000000 0.000000
0.000000 0.206085 0.239502
0.000000 0.219299 0.253418
0.224976 0.224976 0.224976
0.431213 0.202698 0.176178
0.641235 0.151215 0.051666
0.823608 0.044678 0.000000
0.964050 0.000000 0.000000
1.000000 0.000000 0.000000
0.000000 0.359650 0.292145
0.000000 0.379242 0.320374
0.105743 0.396179 0.288177
0.401093 0.401093 0.221710
0.620392 0.377838 0.161377
0.807098 0.351624 0.000000
0.949249 0.325165 0.000000
1.000000 0.305420 0.000000
0.000000 0.526703 0.341370
0.000000 0.546997 0.371918
0.000000 0.569458 0.354431
0.284607 0.583527 0.279327
0.586060 0.586060 0.192322
0.780182 0.568146 0.117645
0.926361 0.553528 0.000000
1.000000 0.541504 0.000000
0.000000 0.677032 0.382416
0.000000 0.696686 0.414673
0.000000 0.722992 0.414825
0.104187 0.738190 0.351105
0.505920 0.746216 0.256744
0.747650 0.747650 0.129395
0.898956 0.733582 0.000000
1.000000 0.725952 0.000000
0.000000 0.793610 0.414703
0.000000 0.812836 0.448334
0.000000 0.842072 0.463654
0.000000 0.856598 0.405823
0.421082 0.867188 0.307678
0.693024 0.870850 0.208832
0.871521 0.871521 0.000000
0.981781 0.860840 0.000000
0.000000 0.878387 0.438690
0.000000 0.893311 0.458588
0.000000 0.912964 0.437469
0.000000 0.931732 0.393890
0.372192 0.948090 0.317871
0.646515 0.958374 0.259583
0.834442 0.960266 0.136597
0.960663 0.960663 0.000000
0.000000 0.000000 0.265808
0.072174 0.000000 0.264832
0.247742 0.000000 0.257690
0.431610 0.000000 0.237030
0.630981 0.000000 0.193970
0.807007 0.000000 0.115479
0.943085 0.000000 0.000000
1.000000 0.000000 0.000000
0.000000 0.059967 0.293427
0.050110 0.050110 0.294983
0.253021 0.019562 0.280975
0.445190 0.000000 0.249115
0.651733 0.000000 0.192535
0.833405 0.000000 0.082886
0.970886 0.000000 0.000000
1.000000 0.000000 0.000000
0.000000 0.206085 0.358307
0.000000 0.217102 0.372681
0.207947 0.207947 0.358734
0.432770 0.195801 0.325012
0.642181 0.142792 0.271820
0.824585 0.002136 0.198212
0.964813 0.000000 0.083069
1.000000 0.000000 0.000000
0.000000 0.359650 0.419006
0.000000 0.378632 0.447845
0.104614 0.393127 0.431824
0.394928 0.394928 0.394928
0.620758 0.376434 0.350098
0.808563 0.344727 0.285767
0.950470 0.312988 0.213715
1.000000 0.289581 0.144989
0.000000 0.526703 0.478027
0.000000 0.546997 0.508636
0.000000 0.569458 0.502228
0.283936 0.583588 0.464172
0.586029 0.586029 0.400055
0.780670 0.567413 0.369629
0.927155 0.550629 0.311798
1.000000 0.536621 0.256989
0.000000 0.677032 0.527954
0.000000 0.696686 0.558685
0.000000 0.722992 0.565155
0.104187 0.738190 0.527313
0.495148 0.747223 0.461426
0.748474 0.748474 0.401764
0.899200 0.733459 0.379181
1.000000 0.724792 0.342377
0.000000 0.793610 0.565613
0.000000 0.812836 0.596436
0.000000 0.842072 0.614624
0.000000 0.856598 0.577026
0.412445 0.867767 0.515106
0.688934 0.871674 0.455505
0.872162 0.872162 0.400391
0.982178 0.859863 0.367554
0.000000 0.878387 0.592499
0.000000 0.893311 0.610992
0.000000 0.912964 0.598328
0.000000 0.931732 0.573975
0.367615 0.948273 0.532593
0.640381 0.958923 0.494476
0.832550 0.960663 0.443848
0.960876 0.960876 0.398071
0.000000 0.000000 0.385315
0.071991 0.000000 0.384705
0.246857 0.000000 0.380249
0.431641 0.000000 0.368317
0.630981 0.000000 0.343994
0.807007 0.000000 0.309814
0.943085 0.000000 0.270782
1.000000 0.000000 0.231354
0.000000 0.059967 0.414215
0.048950 0.048950 0.415314
0.249664 0.018463 0.403931
0.445251 0.000000 0.383453
0.651733 0.000000 0.347778
0.833405 0.000000 0.301422
0.970886 0.000000 0.254211
1.000000 0.000000 0.233917
0.000000 0.206085 0.483093
0.000000 0.216125 0.497681
0.199677 0.199677 0.485748
0.431580 0.182678 0.468109
0.642548 0.138031 0.427399
0.824646 0.000000 0.384125
0.964844 0.000000 0.340515
1.000000 0.000000 0.320099
0.000000 0.359650 0.549286
0.000000 0.377960 0.578247
0.101898 0.385406 0.563965
0.376221 0.376221 0.544098
0.623077 0.368103 0.505554
0.809296 0.340027 0.462585
0.951019 0.306885 0.421417
1.000000 0.281128 0.392456
0.000000 0.526703 0.613800
0.000000 0.546600 0.643646
0.000000 0.566711 0.641541
0.281738 0.579468 0.621979
0.579376 0.579376 0.579376
0.779938 0.567841 0.545593
0.927246 0.550507 0.507996
1.000000 0.534912 0.475342
0.000000 0.677032 0.667358
0.000000 0.696686 0.697021
0.000000 0.722992 0.707458
0.104187 0.738190 0.683655
0.493134 0.747223 0.642578
0.747284 0.747284 0.593933
0.898254 0.735168 0.577881
1.000000 0.725372 0.548889
0.000000 0.793610 0.707642
0.000000 0.812836 0.737122
0.000000 0.842072 0.757324
0.000000 0.856598 0.730865
0.412445 0.867767 0.690308
0.685730 0.871552 0.643921
0.872070 0.872070 0.605072
0.981842 0.861084 0.590912
0.000000 0.878387 0.736298
0.000000 0.893311 0.754272
0.000000 0.912964 0.746399
0.000000 0.931732 0.732117
0.367615 0.948273 0.707581
0.638031 0.959045 0.681000
0.831665 0.960754 0.644318
0.960938 0.960938 0.613403
0.000000 0.000000 0.494965
0.071960 0.000000 0.494507
0.246521 0.000000 0.491241
0.431274 0.000000 0.483063
0.630981 0.000000 0.466034
0.807007 0.000000 0.443085
0.943085 0.000000 0.418762
1.000000 0.000000 0.396606
0.000000 0.059967 0.524719
0.048584 0.048584 0.525513
0.248352 0.018250 0.515198
0.444244 0.000000 0.499420
0.651733 0.000000 0.472076
0.833405 0.000000 0.438873
0.970886 0.000000 0.409454
1.000000 0.000000 0.402405
0.000000 0.206085 0.596100
0.000000 0.215668 0.610535
0.195892 0.195892 0.598602
0.423462 0.178741 0.583893
0.643005 0.131470 0.556213
0.824768 0.000000 0.521393
0.964874 0.000000 0.489868
1.000000 0.000000 0.478973
0.000000 0.359650 0.663971
0.000000 0.377655 0.692383
0.100525 0.381592 0.678497
0.365631 0.365631 0.663055
0.624542 0.352295 0.641327
0.810120 0.333832 0.600281
0.951294 0.303040 0.568390
1.000000 0.278107 0.548157
0.000000 0.526703 0.730103
0.000000 0.546326 0.759277
0.000000 0.563568 0.757599
0.276428 0.569397 0.740936
0.565216 0.565216 0.713104
0.782379 0.560669 0.679169
0.927887 0.546967 0.649261
1.000000 0.532684 0.624756
0.000000 0.677032 0.785400
0.000000 0.696411 0.814301
0.000000 0.720886 0.825134
0.103271 0.733551 0.807068
0.490448 0.743286 0.781311
0.742279 0.742279 0.742279
0.897522 0.735779 0.719330
1.000000 0.727112 0.697693
0.000000 0.793610 0.827087
0.000000 0.812744 0.855835
0.000000 0.841553 0.876892
0.000000 0.856537 0.857727
0.412445 0.867767 0.828766
0.685333 0.871246 0.792419
0.870789 0.870789 0.760010
0.980835 0.863953 0.748840
0.000000 0.878387 0.856812
0.000000 0.893311 0.874420
0.000000 0.912964 0.869476
0.000000 0.931732 0.861053
0.367615 0.948273 0.845612
0.638031 0.959045 0.826538
0.832672 0.960297 0.797577
0.960693 0.960693 0.772797
0.000000 0.000000 0.583252
0.071930 0.000000 0.582886
0.246368 0.000000 0.580231
0.430878 0.000000 0.573608
0.630981 0.000000 0.560455
0.807007 0.000000 0.542297
0.943085 0.000000 0.523651
1.000000 0.000000 0.507050
0.000000 0.059967 0.613251
0.048431 0.048431 0.613831
0.247772 0.018188 0.604187
0.443054 0.000000 0.590088
0.651764 0.000000 0.567596
0.833405 0.000000 0.539856
0.970886 0.000000 0.516815
1.000000 0.000000 0.514099
0.000000 0.206085 0.684570
0.000000 0.215454 0.698792
0.194061 0.194061 0.686554
0.419586 0.176849 0.673370
0.642822 0.124939 0.653870
0.824860 0.000000 0.622467
0.964905 0.000000 0.595764
1.000000 0.000000 0.588287
0.000000 0.359650 0.752686
0.000000 0.377472 0.780640
0.099823 0.379669 0.766785
0.360077 0.360077 0.752563
0.614990 0.346588 0.733795
0.810944 0.327179 0.702850
0.951569 0.299194 0.673737
1.000000 0.275116 0.656708
0.000000 0.526703 0.819519
0.000000 0.546173 0.848206
0.000000 0.561920 0.846558
0.273499 0.563934 0.830688
0.555786 0.555786 0.807800
0.785736 0.547913 0.786346
0.928925 0.541016 0.752625
1.000000 0.528503 0.730682
0.000000 0.677032 0.875641
0.000000 0.696259 0.903992
0.000000 0.719543 0.914703
0.102295 0.728638 0.897369
0.483917 0.733765 0.874786
0.734711 0.734711 0.844604
0.899170 0.731476 0.820007
1.000000 0.724670 0.800690
0.000000 0.793610 0.917999
0.000000 0.812592 0.946136
0.000000 0.840393 0.966858
0.000000 0.852173 0.948456
0.409729 0.862366 0.925385
0.683228 0.868622 0.897705
0.868225 0.868225 0.868225
0.980530 0.864471 0.852905
0.000000 0.878387 0.948242
0.000000 0.893188 0.965546
0.000000 0.912140 0.961700
0.000000 0.930542 0.956451
0.367615 0.948273 0.947571
0.638031 0.959045 0.932587
0.833282 0.960083 0.905487
0.960175 0.960175 0.884766
0.000000 0.000000 0.648346
0.071930 0.000000 0.648010
0.246277 0.000000 0.645691
0.430664 0.000000 0.639954
0.630981 0.000000 0.628845
0.807007 0.000000 0.613159
0.943085 0.000000 0.597260
1.000000 0.000000 0.583282
0.000000 0.059967 0.678131
0.048340 0.048340 0.678589
0.247467 0.018127 0.669312
0.442474 0.000000 0.656158
0.651764 0.000000 0.636536
0.833405 0.000000 0.611542
0.970886 0.000000 0.591644
1.000000 0.000000 0.590820
0.000000 0.206085 0.749054
0.000000 0.215332 0.763123
0.193085 0.193085 0.750610
0.417572 0.175842 0.738312
0.639526 0.124054 0.720367
0.824951 0.000000 0.694183
0.964935 0.000000 0.669739
1.000000 0.000000 0.663879
0.000000 0.359650 0.817230
0.000000 0.377380 0.844910
0.099457 0.378632 0.830994
0.357025 0.357025 0.816986
0.609711 0.343414 0.799774
0.811646 0.321014 0.776672
0.951782 0.295807 0.747955
1.000000 0.272522 0.732361
0.000000 0.526703 0.884338
0.000000 0.546082 0.912659
0.000000 0.560974 0.910950
0.271820 0.560791 0.895325
0.550140 0.550140 0.874359
0.777740 0.542175 0.854950
0.929840 0.535339 0.827179
1.000000 0.524719 0.805481
0.000000 0.677032 0.940826
0.000000 0.696198 0.968750
0.000000 0.718750 0.979370
0.101715 0.725800 0.962280
0.480042 0.728027 0.940857
0.728760 0.728760 0.914337
0.901215 0.724640 0.896118
1.000000 0.720734 0.873688
0.000000 0.793610 0.983521
0.000000 0.812531 1.000000
0.000000 0.839752 1.000000
0.000000 0.849609 1.000000
0.406952 0.856903 0.991364
0.677979 0.862061 0.966095
0.865112 0.865112 0.940735
0.981140 0.862549 0.924652
0.000000 0.878387 1.000000
0.000000 0.893066 1.000000
0.000000 0.911194 1.000000
0.000000 0.927673 1.000000
0.365326 0.942810 1.000000
0.635101 0.954773 1.000000
0.832123 0.958740 0.979248
0.959503 0.959503 0.959503
