src/bin/assets/textures/look32.CUBE
#Created by: Adobe Photoshop Export Color Lookup Plugin
TITLE "Unbenannt-1"
#LUT size
LUT_3D_SIZE 32
#data domain
DOMAIN_MIN 0.0 0.0 0.0
DOMAIN_MAX 1.0 1.0 1.0
#LUT data points
0.000000 0.000000 0.000000
0.000000 0.000000 0.000000
0.000000 0.000000 0.000000
0.021576 0.000092 0.000000
0.072876 0.000000 0.000000
0.116699 0.000000 0.000000
0.160126 0.000000 0.000000
0.203339 0.000000 0.000000
0.247070 0.000000 0.000000
0.291687 0.000000 0.000000
0.337067 0.000000 0.000000
0.383392 0.000000 0.000000
0.430908 0.000000 0.000000
0.479462 0.000000 0.000000
0.529144 0.000000 0.000000
0.579987 0.000000 0.000000
0.630402 0.000000 0.000000
0.678314 0.000000 0.000000
0.723450 0.000000 0.000000
0.766235 0.000000 0.000000
0.806580 0.000000 0.000000
0.844299 0.000000 0.000000
0.879700 0.000000 0.000000
0.912537 0.000000 0.000000
0.942780 0.000000 0.000000
0.970795 0.000000 0.000000
0.996674 0.000000 0.000000
1.000000 0.000000 0.000000
1.000000 0.000000 0.000000
1.000000 0.000000 0.000000
1.000000 0.000000 0.000000
1.000000 0.000000 0.000000
0.000000 0.000000 0.000000
0.000000 0.000000 0.000000
0.000000 0.000000 0.000000
0.021576 0.000092 0.000000
0.072876 0.000000 0.000000
0.116699 0.000000 0.000000
0.160126 0.000000 0.000000
0.203339 0.000000 0.000000
0.247070 0.000000 0.000000
0.291687 0.000000 0.000000
0.337067 0.000000 0.000000
0.383392 0.000000 0.000000
0.430908 0.000000 0.000000
0.479462 0.000000 0.000000
0.529144 0.000000 0.000000
0.579987 0.000000 0.000000
0.630402 0.000000 0.000000
0.678314 0.000000 0.000000
0.723450 0.000000 0.000000
0.766235 0.000000 0.000000
0.806580 0.000000 0.000000
0.844299 0.000000 0.000000
0.879700 0.000000 0.000000
0.912537 0.000000 0.000000
0.942780 0.000000 0.000000
0.970795 0.000000 0.000000
0.996674 0.000000 0.000000
1.000000 0.000000 0.000000
1.000000 0.000000 0.000000
1.000000 0.000000 0.000000
1.000000 0.000000 0.000000
1.000000 0.000000 0.000000
0.000000 0.000000 0.000000
0.000000 0.000000 0.000000
0.000000 0.000000 0.000000
0.021576 0.000092 0.000000
0.072876 0.000000 0.000000
0.116699 0.000000 0.000000
0.160126 0.000000 0.000000
0.203339 0.000000 0.000000
0.247070 0.000000 0.000000
0.291687 0.000000 0.000000
0.337067 0.000000 0.000000
0.383392 0.000000 0.000000
0.430908 0.000000 0.000000
0.479462 0.000000 0.000000
0.529144 0.000000 0.000000
0.579987 0.000000 0.000000
0.630402 0.000000 0.000000
0.678314 0.000000 0.000000
0.723450 0.000000 0.000000
0.766235 0.000000 0.000000
0.806580 0.000000 0.000000
0.844299 0.000000 0.000000
0.879700 0.000000 0.000000
0.912537 0.000000 0.000000
0.942780 0.000000 0.000000
0.970795 0.000000 0.000000
0.996674 0.000000 0.000000
1.000000 0.000000 0.000000
1.000000 0.000000 0.000000
1.000000 0.000000 0.000000
1.000000 0.000000 0.000000
1.000000 0.000000 0.000000
0.000000 0.017273 0.006104
0.000000 0.017273 0.006104
0.000000 0.017273 0.006104
0.018188 0.018188 0.004089
0.072754 0.016479 0.000000
0.118958 0.012695 0.000000
0.164520 0.006073 0.000000
0.209503 0.000000 0.000000
0.254822 0.000000 0.000000
0.299530 0.000000 0.000000
0.345062 0.000000 0.000000
0.391510 0.000000 0.000000
0.439117 0.000000 0.000000
0.487732 0.000000 0.000000
0.537537 0.000000 0.000000
0.588348 0.000000 0.000000
0.638702 0.000000 0.000000
0.686554 0.000000 0.000000
0.731628 0.000000 0.000000
0.774353 0.000000 0.000000
0.814697 0.000000 0.000000
0.852356 0.000000 0.000000
0.887665 0.000000 0.000000
0.920471 0.000000 0.000000
0.950684 0.000000 0.000000
0.978668 0.000000 0.000000
1.000000 0.000000 0.000000
1.000000 0.000000 0.000000
1.000000 0.000000 0.000000
1.000000 0.000000 0.000000
1.000000 0.000000 0.000000
1.000000 0.000000 0.000000
0.000000 0.059967 0.020844
0.000000 0.059967 0.020844
0.000000 0.059967 0.020844
0.004028 0.062988 0.022919
0.064148 0.064148 0.012115
0.113068 0.061676 0.002777
0.159973 0.056641 0.000000
0.205780 0.049011 0.000000
0.251831 0.037445 0.000000
0.298431 0.022156 0.000000
0.345764 0.003448 0.000000
0.393982 0.000000 0.000000
0.443481 0.000000 0.000000
0.493988 0.000000 0.000000
0.545715 0.000000 0.000000
0.598358 0.000000 0.000000
0.650513 0.000000 0.000000
0.700043 0.000000 0.000000
0.746674 0.000000 0.000000
0.790924 0.000000 0.000000
0.832581 0.000000 0.000000
0.871521 0.000000 0.000000
0.907532 0.000000 0.000000
0.940216 0.000000 0.000000
0.970337 0.000000 0.000000
0.998230 0.000000 0.000000
1.000000 0.000000 0.000000
1.000000 0.000000 0.000000
1.000000 0.000000 0.000000
1.000000 0.000000 0.000000
1.000000 0.000000 0.000000
1.000000 0.000000 0.000000
0.000000 0.096710 0.029999
0.000000 0.096710 0.029999
0.000000 0.096710 0.029999
0.000000 0.101654 0.036011
0.047974 0.104279 0.022308
0.105133 0.105133 0.009857
0.153931 0.102478 0.000000
0.200928 0.098206 0.000000
0.247803 0.091980 0.000000
0.294922 0.083771 0.000000
0.342499 0.073029 0.000000
0.390961 0.057526 0.000000
0.440521 0.033630 0.000000
0.491180 0.001740 0.000000
0.542969 0.000000 0.000000
0.595673 0.000000 0.000000
0.647949 0.000000 0.000000
0.697510 0.000000 0.000000
0.744202 0.000000 0.000000
0.788452 0.000000 0.000000
0.830200 0.000000 0.000000
0.869202 0.000000 0.000000
0.905762 0.000000 0.000000
0.939636 0.000000 0.000000
0.970886 0.000000 0.000000
0.999786 0.000000 0.000000
1.000000 0.000000 0.000000
1.000000 0.000000 0.000000
1.000000 0.000000 0.000000
1.000000 0.000000 0.000000
1.000000 0.000000 0.000000
1.000000 0.000000 0.000000
0.000000 0.133301 0.037994
0.000000 0.133301 0.037994
0.000000 0.133301 0.037994
0.000000 0.138672 0.045654
0.020874 0.143494 0.031097
0.089569 0.145294 0.016235
0.145874 0.145874 0.000000
0.194580 0.142975 0.000000
0.242432 0.138977 0.000000
0.290283 0.133667 0.000000
0.338440 0.127167 0.000000
0.387177 0.118744 0.000000
0.437073 0.107635 0.000000
0.487854 0.092651 0.000000
0.539795 0.071350 0.000000
0.592712 0.037048 0.000000
0.645050 0.000000 0.000000
0.694702 0.000000 0.000000
0.741516 0.000000 0.000000
0.785828 0.000000 0.000000
0.827606 0.000000 0.000000
0.866638 0.000000 0.000000
0.903198 0.000000 0.000000
0.937164 0.000000 0.000000
0.968414 0.000000 0.000000
0.997375 0.000000 0.000000
1.000000 0.000000 0.000000
1.000000 0.000000 0.000000
1.000000 0.000000 0.000000
1.000000 0.000000 0.000000
1.000000 0.000000 0.000000
1.000000 0.000000 0.000000
0.000000 0.169464 0.045319
0.000000 0.169464 0.045319
0.000000 0.169464 0.045319
0.000000 0.174957 0.053345
0.000000 0.181732 0.043091
0.064056 0.184631 0.020630
0.130463 0.185974 0.002197
0.186462 0.186462 0.000000
0.235901 0.183044 0.000000
0.284637 0.179260 0.000000
0.333527 0.174622 0.000000
0.382751 0.168762 0.000000
0.432983 0.161530 0.000000
0.484039 0.152374 0.000000
0.536194 0.140625 0.000000
0.589294 0.125214 0.000000
0.641815 0.105377 0.000000
0.691589 0.079559 0.000000
0.738495 0.041656 0.000000
0.782898 0.000000 0.000000
0.824768 0.000000 0.000000
0.863861 0.000000 0.000000
0.900452 0.000000 0.000000
0.934448 0.000000 0.000000
0.965759 0.000000 0.000000
0.994720 0.000000 0.000000
1.000000 0.000000 0.000000
1.000000 0.000000 0.000000
1.000000 0.000000 0.000000
1.000000 0.000000 0.000000
1.000000 0.000000 0.000000
1.000000 0.000000 0.000000
0.000000 0.206085 0.052094
0.000000 0.206085 0.052094
0.000000 0.206085 0.052094
0.000000 0.211700 0.060608
0.000000 0.220154 0.055695
0.016754 0.224182 0.023865
0.107269 0.226074 0.002411
0.170776 0.227142 0.000000
0.227570 0.227570 0.000000
0.277985 0.223724 0.000000
0.327454 0.220123 0.000000
0.377411 0.215698 0.000000
0.428192 0.210266 0.000000
0.479645 0.203735 0.000000
0.532135 0.195648 0.000000
0.585449 0.185638 0.000000
0.638123 0.173523 0.000000
0.688110 0.159515 0.000000
0.735168 0.143433 0.000000
0.779633 0.124359 0.000000
0.821625 0.101501 0.000000
0.860779 0.072357 0.000000
0.897430 0.028961 0.000000
0.931488 0.000000 0.000000
0.962891 0.000000 0.000000
0.991882 0.000000 0.000000
1.000000 0.000000 0.000000
1.000000 0.000000 0.000000
1.000000 0.000000 0.000000
1.000000 0.000000 0.000000
1.000000 0.000000 0.000000
1.000000 0.000000 0.000000
0.000000 0.243378 0.058411
0.000000 0.243378 0.058411
0.000000 0.243378 0.058411
0.000000 0.249084 0.067108
0.000000 0.258942 0.068756
0.000000 0.263428 0.038422
0.069733 0.266541 0.001831
0.148651 0.268066 0.000000
0.211487 0.268982 0.000000
0.269318 0.269318 0.000000
0.320435 0.265228 0.000000
0.371033 0.261597 0.000000
0.422424 0.257385 0.000000
0.474487 0.252258 0.000000
0.527313 0.246185 0.000000
0.580994 0.238861 0.000000
0.633972 0.230255 0.000000
0.684143 0.220673 0.000000
0.731384 0.210083 0.000000
0.775970 0.198425 0.000000
0.818054 0.185608 0.000000
0.857300 0.171692 0.000000
0.894073 0.156342 0.000000
0.928192 0.139526 0.000000
0.959625 0.121063 0.000000
0.988708 0.099915 0.000000
1.000000 0.074982 0.000000
1.000000 0.042908 0.000000
1.000000 0.052917 0.000000
1.000000 0.064392 0.000000
1.000000 0.073700 0.000000
1.000000 0.077545 0.000000
0.000000 0.281311 0.064087
0.000000 0.281311 0.064087
0.000000 0.281311 0.064087
0.000000 0.287018 0.073395
0.000000 0.298218 0.082092
0.000000 0.302795 0.055847
0.000885 0.307068 0.004944
0.118408 0.308990 0.000000
0.190704 0.310394 0.000000
0.253052 0.311218 0.000000
0.311462 0.311462 0.000000
0.363708 0.307404 0.000000
0.415741 0.303772 0.000000
0.468384 0.299652 0.000000
0.521790 0.294769 0.000000
0.575897 0.289062 0.000000
0.629272 0.282471 0.000000
0.679688 0.275269 0.000000
0.727081 0.267426 0.000000
0.771912 0.259125 0.000000
0.814117 0.250092 0.000000
0.853485 0.240723 0.000000
0.890350 0.230927 0.000000
0.924561 0.220612 0.000000
0.956055 0.210175 0.000000
0.985199 0.199341 0.000000
1.000000 0.188385 0.000000
1.000000 0.177399 0.000000
1.000000 0.179565 0.000000
1.000000 0.185425 0.000000
1.000000 0.190674 0.000000
1.000000 0.192902 0.000000
0.000000 0.319977 0.069000
0.000000 0.319977 0.069000
0.000000 0.319977 0.069000
0.000000 0.325684 0.079071
0.000000 0.338226 0.095367
0.000000 0.342743 0.072144
0.000000 0.347198 0.027466
0.070709 0.350311 0.000000
0.163696 0.352081 0.000000
0.233093 0.353363 0.000000
0.295288 0.354156 0.000000
0.354431 0.354431 0.000000
0.408112 0.350403 0.000000
0.461365 0.346680 0.000000
0.515350 0.342743 0.000000
0.570038 0.337952 0.000000
0.623871 0.332642 0.000000
0.674622 0.326935 0.000000
0.722260 0.320892 0.000000
0.767334 0.314453 0.000000
0.809692 0.307678 0.000000
0.849243 0.300720 0.000000
0.886230 0.293427 0.000000
0.920532 0.286072 0.000000
0.952087 0.278748 0.000000
0.981293 0.271332 0.000000
1.000000 0.263977 0.000000
1.000000 0.256836 0.000000
1.000000 0.257324 0.000000
1.000000 0.262543 0.000000
1.000000 0.267273 0.000000
1.000000 0.269318 0.000000
0.000000 0.359650 0.073517
0.000000 0.359650 0.073517
0.000000 0.359650 0.073517
0.000000 0.365356 0.084412
0.000000 0.379242 0.108398
0.000000 0.383759 0.087341
0.000000 0.388245 0.050690
0.000000 0.392487 0.000000
0.125488 0.394592 0.000000
0.207764 0.396210 0.000000
0.275635 0.397461 0.000000
0.338074 0.398224 0.000000
0.398499 0.398499 0.000000
0.453339 0.394470 0.000000
0.508087 0.390686 0.000000
0.563263 0.386810 0.000000
0.617615 0.382385 0.000000
0.668854 0.377655 0.000000
0.716888 0.372711 0.000000
0.762146 0.367584 0.000000
0.804718 0.362274 0.000000
0.844421 0.356750 0.000000
0.881561 0.351105 0.000000
0.915985 0.345490 0.000000
0.947723 0.339844 0.000000
0.977020 0.334259 0.000000
1.000000 0.328766 0.000000
1.000000 0.323517 0.000000
1.000000 0.322815 0.000000
1.000000 0.327911 0.000000
1.000000 0.332520 0.000000
1.000000 0.334534 0.000000
0.000000 0.400085 0.077179
0.000000 0.400085 0.077179
0.000000 0.400085 0.077179
0.000000 0.405823 0.089111
0.000000 0.420258 0.116943
0.000000 0.425629 0.101654
0.000000 0.430084 0.070312
0.000000 0.434418 0.008087
0.060638 0.437714 0.000000
0.174347 0.439667 0.000000
0.251434 0.441254 0.000000
0.318695 0.442444 0.000000
0.382050 0.443176 0.000000
0.443481 0.443481 0.000000
0.499634 0.439453 0.000000
0.555634 0.435638 0.000000
0.610565 0.431946 0.000000
0.662262 0.427948 0.000000
0.710693 0.423828 0.000000
0.756348 0.419556 0.000000
0.799194 0.415161 0.000000
0.839081 0.410706 0.000000
0.876404 0.406189 0.000000
0.911011 0.401642 0.000000
0.942810 0.397156 0.000000
0.972198 0.392792 0.000000
0.999329 0.388489 0.000000
1.000000 0.384369 0.000000
1.000000 0.382599 0.000000
1.000000 0.387726 0.000000
1.000000 0.392334 0.000000
1.000000 0.394348 0.000000
0.000000 0.441498 0.080353
0.000000 0.441498 0.080353
0.000000 0.441498 0.080353
0.000000 0.447266 0.093018
0.000000 0.461731 0.122589
0.000000 0.468475 0.115417
0.000000 0.472931 0.087616
0.000000 0.477325 0.035339
0.000000 0.481567 0.000000
0.126190 0.483887 0.000000
0.220703 0.485779 0.000000
0.295135 0.487335 0.000000
0.362671 0.488464 0.000000
0.426849 0.489197 0.000000
0.489471 0.489471 0.000000
0.546906 0.485413 0.000000
0.602600 0.481750 0.000000
0.654846 0.478333 0.000000
0.703674 0.474884 0.000000
0.749695 0.471252 0.000000
0.792938 0.467529 0.000000
0.833099 0.463806 0.000000
0.870667 0.460052 0.000000
0.905426 0.456329 0.000000
0.937378 0.452637 0.000000
0.966919 0.449066 0.000000
0.994110 0.445587 0.000000
1.000000 0.442261 0.000000
1.000000 0.439453 0.000000
1.000000 0.444580 0.000000
1.000000 0.449219 0.000000
1.000000 0.451202 0.000000
0.000000 0.483948 0.082642
0.000000 0.483948 0.082642
0.000000 0.483948 0.082642
0.000000 0.489746 0.096527
0.000000 0.504303 0.127960
0.000000 0.512482 0.128906
0.000000 0.516907 0.103394
0.000000 0.521271 0.061340
0.000000 0.525574 0.000000
0.027985 0.528992 0.000000
0.179443 0.531128 0.000000
0.266022 0.532959 0.000000
0.339569 0.534454 0.000000
0.407440 0.535522 0.000000
0.472595 0.536255 0.000000
0.536469 0.536469 0.000000
0.593445 0.532532 0.000000
0.646515 0.529083 0.000000
0.695862 0.525940 0.000000
0.742310 0.522858 0.000000
0.785919 0.519653 0.000000
0.826416 0.516418 0.000000
0.864197 0.513184 0.000000
0.899200 0.510010 0.000000
0.931335 0.506897 0.000000
0.961060 0.503845 0.000000
0.988373 0.500977 0.000000
1.000000 0.498138 0.000000
1.000000 0.495483 0.000000
1.000000 0.499390 0.000000
1.000000 0.504028 0.000000
1.000000 0.505981 0.000000
0.000000 0.526703 0.084259
0.000000 0.526703 0.084259
0.000000 0.526703 0.084259
0.000000 0.532471 0.099213
0.000000 0.546997 0.132538
0.000000 0.556549 0.142181
0.000000 0.560883 0.118683
0.000000 0.565155 0.082458
0.000000 0.569458 0.007385
0.000000 0.573608 0.000000
0.118530 0.576111 0.000000
0.229736 0.578094 0.000000
0.312378 0.579865 0.000000
0.385193 0.581238 0.000000
0.453674 0.582214 0.000000
0.519867 0.582855 0.000000
0.583038 0.583038 0.000000
0.637238 0.579376 0.000000
0.687378 0.576111 0.000000
0.734314 0.573181 0.000000
0.778290 0.570343 0.000000
0.819092 0.567566 0.000000
0.857208 0.564728 0.000000
0.892456 0.561951 0.000000
0.924835 0.559235 0.000000
0.954712 0.556641 0.000000
0.982208 0.554077 0.000000
1.000000 0.551727 0.000000
1.000000 0.549408 0.000000
1.000000 0.551941 0.000000
1.000000 0.556488 0.000000
1.000000 0.558472 0.000000
0.000000 0.567474 0.085358
0.000000 0.567474 0.085358
0.000000 0.567474 0.085358
0.000000 0.573273 0.101501
0.000000 0.587616 0.136963
0.000000 0.598450 0.155060
0.000000 0.602722 0.133026
0.000000 0.606934 0.100708
0.000000 0.611145 0.040771
0.000000 0.615295 0.000000
0.000000 0.618652 0.000000
0.184265 0.620850 0.000000
0.281250 0.622742 0.000000
0.360748 0.624359 0.000000
0.433228 0.625610 0.000000
0.502228 0.626556 0.000000
0.567444 0.627075 0.000000
0.627258 0.627258 0.000000
0.678345 0.623840 0.000000
0.726013 0.620728 0.000000
0.770447 0.617950 0.000000
0.811646 0.615417 0.000000
0.850006 0.612885 0.000000
0.885529 0.610474 0.000000
0.918121 0.608063 0.000000
0.948151 0.605682 0.000000
0.975830 0.603424 0.000000
1.000000 0.601349 0.000000
1.000000 0.599335 0.000000
1.000000 0.600555 0.000000
1.000000 0.605164 0.000000
1.000000 0.607117 0.000000
0.000000 0.606018 0.086456
0.000000 0.606018 0.086456
0.000000 0.606018 0.086456
0.000000 0.611725 0.103790
0.000000 0.625946 0.141357
0.000000 0.638031 0.167572
0.000000 0.642181 0.146729
0.000000 0.646332 0.117432
0.000000 0.650482 0.068787
0.000000 0.654602 0.000000
0.000000 0.658539 0.000000
0.120605 0.660950 0.000000
0.245148 0.663055 0.000000
0.333954 0.664795 0.000000
0.411407 0.666290 0.000000
0.483704 0.667419 0.000000
0.551208 0.668243 0.000000
0.612610 0.668701 0.000000
0.668884 0.668884 0.000000
0.717316 0.665649 0.000000
0.762390 0.662720 0.000000
0.804016 0.660126 0.000000
0.842682 0.657776 0.000000
0.878479 0.655518 0.000000
0.911255 0.653412 0.000000
0.941528 0.651306 0.000000
0.969360 0.649292 0.000000
0.994385 0.647400 0.000000
1.000000 0.645538 0.000000
1.000000 0.645630 0.000000
1.000000 0.650208 0.000000
1.000000 0.652161 0.000000
0.000000 0.642517 0.087677
0.000000 0.642517 0.087677
0.000000 0.642517 0.087677
0.000000 0.648193 0.106079
0.000000 0.662354 0.145569
0.000000 0.674774 0.175232
0.000000 0.679657 0.159790
0.000000 0.683685 0.132782
0.000000 0.687714 0.090973
0.000000 0.691803 0.001831
0.000000 0.695740 0.000000
0.000000 0.698883 0.000000
0.201385 0.701050 0.000000
0.304077 0.703033 0.000000
0.388000 0.704651 0.000000
0.464172 0.705994 0.000000
0.534302 0.707031 0.000000
0.597565 0.707733 0.000000
0.655090 0.708130 0.000000
0.708252 0.708252 0.000000
0.753937 0.705231 0.000000
0.796143 0.702484 0.000000
0.835297 0.700043 0.000000
0.871338 0.697876 0.000000
0.904388 0.695892 0.000000
0.934814 0.693939 0.000000
0.962860 0.692139 0.000000
0.988007 0.690460 0.000000
1.000000 0.688782 0.000000
1.000000 0.687805 0.000000
1.000000 0.692352 0.000000
1.000000 0.694366 0.000000
0.000000 0.677032 0.089081
0.000000 0.677032 0.089081
0.000000 0.677032 0.089081
0.000000 0.682648 0.108459
0.000000 0.696686 0.149597
0.000000 0.709015 0.180359
0.000000 0.715027 0.172302
0.000000 0.718964 0.147278
0.000000 0.722992 0.110046
0.000000 0.726959 0.039246
0.000000 0.730865 0.000000
0.000000 0.734589 0.000000
0.143646 0.736877 0.000000
0.270508 0.738892 0.000000
0.362854 0.740692 0.000000
0.443695 0.742218 0.000000
0.516846 0.743378 0.000000
0.582092 0.744293 0.000000
0.641113 0.744904 0.000000
0.695343 0.745239 0.000000
0.745361 0.745361 0.000000
0.788086 0.742554 0.000000
0.827698 0.740051 0.000000
0.864105 0.737732 0.000000
0.897430 0.735718 0.000000
0.928101 0.733887 0.000000
0.956299 0.732147 0.000000
0.981628 0.730591 0.000000
1.000000 0.729095 0.000000
1.000000 0.727722 0.000000
1.000000 0.731720 0.000000
1.000000 0.733673 0.000000
0.000000 0.709290 0.090576
0.000000 0.709290 0.090576
0.000000 0.709290 0.090576
0.000000 0.714874 0.110992
0.000000 0.728851 0.153687
0.000000 0.741119 0.185394
0.000000 0.748108 0.184479
0.000000 0.752014 0.160614
0.000000 0.755920 0.126862
0.000000 0.759827 0.069946
0.000000 0.763733 0.000000
0.000000 0.767456 0.000000
0.040222 0.770233 0.000000
0.232117 0.772369 0.000000
0.336029 0.774261 0.000000
0.422455 0.775909 0.000000
0.498932 0.777283 0.000000
0.566376 0.778320 0.000000
0.626984 0.779053 0.000000
0.682373 0.779572 0.000000
0.733337 0.779907 0.000000
0.779999 0.779999 0.000000
0.820099 0.777374 0.000000
0.856873 0.775055 0.000000
0.890533 0.772919 0.000000
0.921448 0.771027 0.000000
0.949799 0.769318 0.000000
0.975311 0.767792 0.000000
0.998749 0.766418 0.000000
1.000000 0.765076 0.000000
1.000000 0.768097 0.000000
1.000000 0.770050 0.000000
0.000000 0.739563 0.092499
0.000000 0.739563 0.092499
0.000000 0.739563 0.092499
0.000000 0.745087 0.113739
0.000000 0.758972 0.157684
0.000000 0.771149 0.190338
0.000000 0.779144 0.195984
0.000000 0.783020 0.173218
0.000000 0.786865 0.142090
0.000000 0.790710 0.093323
0.000000 0.794495 0.000000
0.000000 0.798187 0.000000
0.000000 0.801422 0.000000
0.185791 0.803619 0.000000
0.307007 0.805664 0.000000
0.400299 0.807404 0.000000
0.480682 0.808868 0.000000
0.550568 0.810028 0.000000
0.612823 0.810974 0.000000
0.669495 0.811615 0.000000
0.721375 0.812073 0.000000
0.768768 0.812317 0.000000
0.812439 0.812439 0.000000
0.849640 0.809998 0.000000
0.883606 0.807831 0.000000
0.914795 0.805878 0.000000
0.943390 0.804108 0.000000
0.969086 0.802582 0.000000
0.992645 0.801208 0.000000
1.000000 0.799957 0.000000
1.000000 0.801971 0.000000
1.000000 0.803925 0.000000
0.000000 0.767670 0.094360
0.000000 0.767670 0.094360
0.000000 0.767670 0.094360
0.000000 0.773224 0.116364
0.000000 0.787018 0.161713
0.000000 0.799103 0.195099
0.000000 0.808014 0.206818
0.000000 0.811829 0.185242
0.000000 0.815582 0.156067
0.000000 0.819366 0.112732
0.000000 0.823120 0.023468
0.000000 0.826752 0.000000
0.000000 0.830292 0.000000
0.124420 0.832611 0.000000
0.275665 0.834717 0.000000
0.377441 0.836578 0.000000
0.462189 0.838135 0.000000
0.534729 0.839447 0.000000
0.598755 0.840454 0.000000
0.656708 0.841217 0.000000
0.709503 0.841797 0.000000
0.757751 0.842194 0.000000
0.802063 0.842407 0.000000
0.842529 0.842529 0.000000
0.876770 0.840302 0.000000
0.908264 0.838257 0.000000
0.937134 0.836456 0.000000
0.962952 0.834808 0.000000
0.986694 0.833374 0.000000
1.000000 0.832214 0.000000
1.000000 0.833344 0.000000
1.000000 0.835297 0.000000
0.000000 0.793610 0.096588
0.000000 0.793610 0.096588
0.000000 0.793610 0.096588
0.000000 0.799103 0.119141
0.000000 0.812836 0.165527
0.000000 0.824890 0.199493
0.000000 0.834534 0.216644
0.000000 0.838348 0.196320
0.000000 0.842072 0.168762
0.000000 0.845825 0.129272
0.000000 0.849487 0.059113
0.000000 0.853119 0.000000
0.000000 0.856598 0.000000
0.003632 0.859283 0.000000
0.241150 0.861420 0.000000
0.354004 0.863342 0.000000
0.443665 0.865051 0.000000
0.519043 0.866425 0.000000
0.584930 0.867523 0.000000
0.644196 0.868408 0.000000
0.698029 0.869110 0.000000
0.747040 0.869598 0.000000
0.791931 0.869904 0.000000
0.832916 0.870087 0.000000
0.870209 0.870209 0.000000
0.901917 0.868134 0.000000
0.931030 0.866272 0.000000
0.957031 0.864624 0.000000
0.980957 0.863129 0.000000
1.000000 0.861816 0.000000
1.000000 0.862152 0.000000
1.000000 0.864075 0.000000
0.000000 0.817657 0.098907
0.000000 0.817657 0.098907
0.000000 0.817657 0.098907
0.000000 0.823120 0.122009
0.000000 0.836792 0.169250
0.000000 0.848755 0.203857
0.000000 0.854065 0.193604
0.000000 0.859009 0.178406
0.000000 0.863953 0.157867
0.000000 0.868927 0.128632
0.000000 0.873810 0.082611
0.000000 0.877472 0.000000
0.000000 0.880920 0.000000
0.000000 0.883881 0.000000
0.202179 0.886108 0.000000
0.329742 0.888123 0.000000
0.425140 0.889862 0.000000
0.503601 0.891327 0.000000
0.571320 0.892517 0.000000
0.631989 0.893494 0.000000
0.686859 0.894257 0.000000
0.736633 0.894836 0.000000
0.782196 0.895233 0.000000
0.823669 0.895538 0.000000
0.861359 0.895691 0.000000
0.895782 0.895782 0.000000
0.925110 0.893921 0.000000
0.951294 0.892242 0.000000
0.975342 0.890717 0.000000
0.996643 0.889374 0.000000
1.000000 0.888824 0.000000
1.000000 0.890778 0.000000
0.000000 0.839874 0.101257
0.000000 0.839874 0.101257
0.000000 0.839874 0.101257
0.000000 0.845306 0.124786
0.000000 0.858917 0.172791
0.000000 0.867035 0.182739
0.000000 0.872070 0.168457
0.000000 0.877014 0.149200
0.000000 0.881897 0.122101
0.000000 0.886780 0.079193
0.000000 0.891632 0.000000
0.000000 0.896454 0.000000
0.000000 0.901154 0.000000
0.000000 0.905640 0.000000
0.155121 0.908844 0.000000
0.304535 0.910889 0.000000
0.406586 0.912689 0.000000
0.488312 0.914276 0.000000
0.558167 0.915466 0.000000
0.620178 0.916565 0.000000
0.676117 0.917389 0.000000
0.726562 0.918060 0.000000
0.772736 0.918518 0.000000
0.814758 0.918854 0.000000
0.852844 0.919128 0.000000
0.887604 0.919312 0.000000
0.919403 0.919403 0.000000
0.945801 0.917664 0.000000
0.970001 0.916138 0.000000
0.991425 0.914764 0.000000
1.000000 0.913574 0.000000
1.000000 0.915466 0.000000
0.000000 0.859863 0.103851
0.000000 0.859863 0.103851
0.000000 0.859863 0.103851
0.000000 0.865326 0.127502
0.000000 0.878265 0.171875
0.000000 0.883331 0.158630
0.000000 0.888336 0.140656
0.000000 0.893188 0.115570
0.000000 0.898041 0.076111
0.000000 0.902924 0.000000
0.000000 0.907684 0.000000
0.000000 0.912415 0.000000
0.000000 0.917053 0.000000
0.000000 0.921326 0.000000
0.160278 0.925110 0.000000
0.298340 0.928711 0.000000
0.394562 0.932129 0.000000
0.473633 0.934906 0.000000
