src/bin/assets/textures/look32.CUBE
#Created by: Adobe Photoshop Export Color Lookup Plugin
TITLE "Unbenannt-1"
#LUT size
LUT_3D_SIZE 5
#data domain
#LUT data points
DOMAIN_MIN 0.000000 0.000000 0.000000
DOMAIN_MAX 0.903226 0.903226 0.903226
0.000000 0.000000 0.000000
0.203339 0.000000 0.000000
0.529144 0.000000 0.000000
0.844299 0.000000 0.000000
1.000000 0.000000 0.000000
0.000000 0.169464 0.045319
0.186462 0.186462 0.000000
0.536194 0.140625 0.000000
0.863861 0.000000 0.000000
1.000000 0.000000 0.000000
0.000000 0.441498 0.080353
0.000000 0.477325 0.035339
0.489471 0.489471 0.000000
0.833099 0.463806 0.000000
1.000000 0.439453 0.000000
0.000000 0.709290 0.090576
0.000000 0.752014 0.160614
0.336029 0.774261 0.000000
0.779999 0.779999 0.000000
0.998749 0.766418 0.000000
0.000000 0.878387 0.106079
0.000000 0.908173 0.071289
0.171387 0.939575 0.000000
0.708221 0.958130 0.000000
0.960205 0.960205 0.000000
0.000000 0.000000 0.128357
0.203949 0.000000 0.113892
0.529785 0.000000 0.000000
0.844696 0.000000 0.000000
1.000000 0.000000 0.000000
0.000000 0.169464 0.196808
0.184570 0.184570 0.184570
0.539062 0.121948 0.037994
0.865082 0.000000 0.000000
1.000000 0.000000 0.000000
0.000000 0.441498 0.283356
0.000000 0.477325 0.294769
0.492188 0.492188 0.154083
0.834869 0.458130 0.000000
1.000000 0.430115 0.000000
0.000000 0.709290 0.352081
0.000000 0.752014 0.398895
0.308228 0.776733 0.255676
0.781708 0.781708 0.000000
0.999329 0.763947 0.000000
0.000000 0.878387 0.396484
0.000000 0.908173 0.400452
0.120544 0.940460 0.295776
0.702148 0.958923 0.124023
0.960571 0.960571 0.000000
0.000000 0.000000 0.324463
0.203125 0.000000 0.320190
0.529785 0.000000 0.289490
0.844696 0.000000 0.210358
1.000000 0.000000 0.076630
0.000000 0.169464 0.403717
0.162781 0.162781 0.406372
0.540283 0.110504 0.356506
0.865997 0.000000 0.263702
1.000000 0.000000 0.180328
0.000000 0.441498 0.514984
0.000000 0.474945 0.539795
0.485748 0.485748 0.485748
0.836517 0.452606 0.407990
1.000000 0.415619 0.328552
0.000000 0.709290 0.609039
0.000000 0.752014 0.656342
0.302216 0.777100 0.597656
0.782776 0.782776 0.502899
0.999512 0.763672 0.468536
0.000000 0.878387 0.665161
0.000000 0.908173 0.676422
0.120544 0.940460 0.640411
0.694580 0.959686 0.579620
0.960938 0.960938 0.511902
0.000000 0.000000 0.519165
0.202576 0.000000 0.516754
0.529785 0.000000 0.501373
0.844696 0.000000 0.465088
1.000000 0.000000 0.428009
0.000000 0.169464 0.603241
0.157440 0.157440 0.605377
0.539093 0.098633 0.578369
0.866058 0.000000 0.522064
1.000000 0.000000 0.492310
0.000000 0.441498 0.721954
0.000000 0.470337 0.746277
0.460114 0.460114 0.715973
0.838379 0.442566 0.660187
1.000000 0.409180 0.613861
0.000000 0.709290 0.822113
0.000000 0.750671 0.868652
0.300018 0.771973 0.835327
0.777161 0.777161 0.777161
0.998993 0.766052 0.741852
0.000000 0.878387 0.882263
0.000000 0.908173 0.896698
0.120544 0.940460 0.882141
0.694305 0.959595 0.848572
0.960602 0.960602 0.804779
0.000000 0.000000 0.648346
0.202454 0.000000 0.646545
0.529297 0.000000 0.635193
0.844696 0.000000 0.609131
1.000000 0.000000 0.583282
0.000000 0.169464 0.731873
0.155975 0.155975 0.733246
0.534058 0.097321 0.710022
0.866150 0.000000 0.667694
1.000000 0.000000 0.646484
0.000000 0.441498 0.850983
0.000000 0.468842 0.874603
0.450287 0.450287 0.847168
0.840485 0.429382 0.810089
1.000000 0.403381 0.766693
0.000000 0.709290 0.952728
0.000000 0.749634 0.997986
0.296051 0.762726 0.966492
0.766968 0.766968 0.921906
1.000000 0.760864 0.888000
0.000000 0.878387 1.000000
0.000000 0.906921 1.000000
0.119659 0.935394 1.000000
0.691711 0.956085 0.996735
0.959503 0.959503 0.959503
